%
(1)
(T1  D=0.25 CR=0 - ZMIN=-0.75 - flat end mill)
G90
G17
G20
G28 G91 Z0
G90

(Adaptive1)
M9
T1 M6
S18000 M3
G54
M7
G0 X-2.3255 Y0.0916
Z0.6
Z0.2
Z0.1001
G3 X-2.1745 Y-0.0916 Z0.0871 I0.0755 J-0.0916 F25
X-2.3255 Y0.0916 Z0.0741 I-0.0755 J0.0916
X-2.1745 Y-0.0916 Z0.061 I0.0755 J-0.0916
X-2.3255 Y0.0916 Z0.048 I-0.0755 J0.0916
X-2.1745 Y-0.0916 Z0.035 I0.0755 J-0.0916
X-2.3255 Y0.0916 Z0.022 I-0.0755 J0.0916
X-2.1745 Y-0.0916 Z0.0089 I0.0755 J-0.0916
X-2.3255 Y0.0916 Z-0.0041 I-0.0755 J0.0916
X-2.1745 Y-0.0916 Z-0.0171 I0.0755 J-0.0916
X-2.3255 Y0.0916 Z-0.0302 I-0.0755 J0.0916
X-2.1745 Y-0.0916 Z-0.0432 I0.0755 J-0.0916
X-2.3255 Y0.0916 Z-0.0562 I-0.0755 J0.0916
X-2.1745 Y-0.0916 Z-0.0692 I0.0755 J-0.0916
X-2.3255 Y0.0916 Z-0.0823 I-0.0755 J0.0916
X-2.1745 Y-0.0916 Z-0.0953 I0.0755 J-0.0916
X-2.3255 Y0.0916 Z-0.1083 I-0.0755 J0.0916
X-2.1745 Y-0.0916 Z-0.1213 I0.0755 J-0.0916
X-2.1313 Y0 Z-0.125 I-0.0755 J0.0916
X-2.3687 I-0.1187 J0
X-2.1313 I0.1187 J0
G1 X-2.1311 Y0.0097 F70
X-2.124 Y0.0481
X-2.1222 Y0.0538
X-2.1211 Y0.0597
X-2.1205 Y0.0657
Y0.0717
X-2.121 Y0.0782
X-2.1221 Y0.0851
X-2.1238 Y0.0924
X-2.1263 Y0.0999
X-2.1295 Y0.1076
X-2.1335 Y0.1154
X-2.1384 Y0.1233
X-2.1442 Y0.131
X-2.1508 Y0.1386
X-2.1583 Y0.146
X-2.1667 Y0.1529
X-2.1759 Y0.1594
X-2.186 Y0.1653
X-2.1967 Y0.1705
X-2.2081 Y0.1749
X-2.2202 Y0.1785
X-2.2327 Y0.1812
X-2.2457 Y0.1829
X-2.259 Y0.1836
X-2.2725 Y0.1832
X-2.2862 Y0.1816
X-2.2998 Y0.179
X-2.3133 Y0.1752
X-2.3267 Y0.1703
X-2.3397 Y0.1643
X-2.3522 Y0.1572
X-2.3643 Y0.1491
X-2.3757 Y0.14
X-2.3864 Y0.1299
X-2.3964 Y0.119
X-2.4054 Y0.1072
X-2.4135 Y0.0948
X-2.4206 Y0.0816
X-2.4267 Y0.0679
X-2.4316 Y0.0537
X-2.4354 Y0.0392
X-2.438 Y0.0243
X-2.4394 Y0.0093
X-2.4396 Y-0.0058
X-2.4386 Y-0.0209
X-2.4364 Y-0.0359
X-2.433 Y-0.0507
X-2.4284 Y-0.0652
X-2.4226 Y-0.0793
X-2.4157 Y-0.0928
X-2.4078 Y-0.1058
X-2.3988 Y-0.1181
X-2.3889 Y-0.1297
X-2.3781 Y-0.1404
X-2.3664 Y-0.1502
X-2.354 Y-0.1591
X-2.341 Y-0.1669
X-2.3273 Y-0.1737
X-2.3131 Y-0.1793
X-2.2985 Y-0.1838
X-2.2836 Y-0.1871
X-2.2685 Y-0.1892
X-2.2533 Y-0.1901
X-2.238 Y-0.1898
X-2.2228 Y-0.1882
X-2.2078 Y-0.1854
X-2.1931 Y-0.1814
X-2.1787 Y-0.1763
X-2.1648 Y-0.17
X-2.1514 Y-0.1626
X-2.1387 Y-0.1542
X-2.1267 Y-0.1447
X-2.1155 Y-0.1344
X-2.1051 Y-0.1232
X-2.0957 Y-0.1111
X-2.0873 Y-0.0984
X-2.0727 Y-0.072
X-2.0603 Y-0.0445
X-2.0524 Y-0.0224
X-2.0471 Y-0.0025
X-2.0437 Y0.016
X-2.0418 Y0.034
X-2.0415 Y0.0513
X-2.0425 Y0.0682
X-2.0448 Y0.0847
X-2.0483 Y0.1008
X-2.0532 Y0.1165
X-2.0593 Y0.1318
X-2.0667 Y0.1466
X-2.0752 Y0.1609
X-2.085 Y0.1746
X-2.096 Y0.1875
X-2.1081 Y0.1997
X-2.1212 Y0.211
X-2.1355 Y0.2214
X-2.1507 Y0.2307
X-2.1669 Y0.2388
X-2.1839 Y0.2458
X-2.2016 Y0.2514
X-2.22 Y0.2556
X-2.2389 Y0.2584
X-2.2581 Y0.2597
X-2.2776 Y0.2594
X-2.2972 Y0.2576
X-2.3168 Y0.2541
X-2.3361 Y0.249
X-2.3552 Y0.2424
X-2.3737 Y0.2342
X-2.3917 Y0.2245
X-2.409 Y0.2133
X-2.4253 Y0.2006
X-2.4407 Y0.1867
X-2.455 Y0.1714
X-2.468 Y0.155
X-2.4798 Y0.1376
X-2.4901 Y0.1192
X-2.499 Y0.0999
X-2.5063 Y0.08
X-2.512 Y0.0595
X-2.516 Y0.0385
X-2.5184 Y0.0173
X-2.519 Y-0.0041
X-2.518 Y-0.0255
X-2.5152 Y-0.0468
X-2.5107 Y-0.0678
X-2.5045 Y-0.0885
X-2.4966 Y-0.1085
X-2.4872 Y-0.1279
X-2.4763 Y-0.1465
X-2.4639 Y-0.1642
X-2.4501 Y-0.1808
X-2.435 Y-0.1962
X-2.4187 Y-0.2104
X-2.4013 Y-0.2233
X-2.3829 Y-0.2347
X-2.3637 Y-0.2446
X-2.3437 Y-0.253
X-2.3231 Y-0.2597
X-2.3021 Y-0.2647
X-2.2807 Y-0.2681
X-2.2591 Y-0.2697
X-2.2374 Y-0.2695
X-2.2158 Y-0.2677
X-2.1945 Y-0.2641
X-2.1735 Y-0.2588
X-2.153 Y-0.2518
X-2.1331 Y-0.2432
X-2.1139 Y-0.233
X-2.0957 Y-0.2214
X-2.0784 Y-0.2083
X-2.0601 Y-0.1919
X-2.0418 Y-0.1727
X-2.0246 Y-0.1515
X-2.0089 Y-0.1285
X-1.9951 Y-0.1045
X-1.9836 Y-0.0801
X-1.9743 Y-0.0554
X-1.9672 Y-0.0306
X-1.9623 Y-0.0059
X-1.9593 Y0.0187
X-1.9584 Y0.0431
X-1.9594 Y0.0672
X-1.9623 Y0.091
X-1.9671 Y0.1143
X-1.9738 Y0.1371
X-1.9822 Y0.1592
X-1.9924 Y0.1806
X-2.0042 Y0.2012
X-2.0178 Y0.2208
X-2.0329 Y0.2393
X-2.0496 Y0.2567
X-2.0677 Y0.2728
X-2.0873 Y0.2874
X-2.1081 Y0.3006
X-2.1301 Y0.3122
X-2.1531 Y0.322
X-2.1771 Y0.3301
X-2.2018 Y0.3362
X-2.2271 Y0.3404
X-2.2529 Y0.3425
X-2.2789
X-2.3051 Y0.3405
X-2.3311 Y0.3363
X-2.357 Y0.33
X-2.3823 Y0.3216
X-2.4071 Y0.3112
X-2.4311 Y0.2987
X-2.4541 Y0.2843
X-2.476 Y0.268
X-2.4965 Y0.2499
X-2.5157 Y0.2301
X-2.5333 Y0.2088
X-2.5491 Y0.1861
X-2.5631 Y0.162
X-2.5752 Y0.1369
X-2.5853 Y0.1108
X-2.5932 Y0.084
X-2.599 Y0.0565
X-2.6025 Y0.0286
X-2.6038 Y0.0004
X-2.6029 Y-0.0278
X-2.5997 Y-0.0558
X-2.5942 Y-0.0836
X-2.5865 Y-0.1108
X-2.5766 Y-0.1374
X-2.5647 Y-0.1631
X-2.5507 Y-0.1877
X-2.5347 Y-0.2112
X-2.517 Y-0.2334
X-2.4974 Y-0.254
X-2.4763 Y-0.2731
X-2.4537 Y-0.2903
X-2.4298 Y-0.3057
X-2.4048 Y-0.3192
X-2.3787 Y-0.3306
X-2.3518 Y-0.3399
X-2.3242 Y-0.3469
X-2.2961 Y-0.3518
X-2.2678 Y-0.3544
X-2.2393 Y-0.3547
X-2.2109 Y-0.3527
X-2.1827 Y-0.3484
X-2.155 Y-0.3419
X-2.1279 Y-0.3332
X-2.1015 Y-0.3223
X-2.0755 Y-0.309
X-2.0498 Y-0.2932
X-2.0246 Y-0.2748
X-2.0004 Y-0.2538
X-1.9775 Y-0.2305
X-1.9563 Y-0.2052
X-1.9371 Y-0.1782
X-1.9202 Y-0.1498
X-1.9057 Y-0.1204
X-1.8938 Y-0.0901
X-1.8844 Y-0.0592
X-1.8775 Y-0.0279
X-1.8733 Y0.0036
X-1.8715 Y0.0351
X-1.8723 Y0.0664
X-1.8756 Y0.0973
X-1.8814 Y0.1278
X-1.8895 Y0.1577
X-1.9001 Y0.1867
X-1.9129 Y0.2148
X-1.9279 Y0.2419
X-1.9451 Y0.2676
X-1.9643 Y0.292
X-1.9856 Y0.3149
X-2.0087 Y0.336
X-2.0335 Y0.3554
X-2.06 Y0.3728
X-2.088 Y0.3881
X-2.1172 Y0.4011
X-2.1476 Y0.4119
X-2.179 Y0.4202
X-2.2111 Y0.426
X-2.2437 Y0.4293
X-2.2767 Y0.4299
X-2.3099 Y0.4278
X-2.3429 Y0.4231
X-2.3756 Y0.4157
X-2.4077 Y0.4057
X-2.4391 Y0.393
X-2.4696 Y0.3778
X-2.4988 Y0.3602
X-2.5266 Y0.3401
X-2.5528 Y0.3178
X-2.5772 Y0.2934
X-2.5997 Y0.2671
X-2.62 Y0.2389
X-2.638 Y0.2092
X-2.6537 Y0.178
X-2.6668 Y0.1455
X-2.6773 Y0.1121
X-2.6851 Y0.0778
X-2.6901 Y0.043
X-2.6923 Y0.0079
X-2.6917 Y-0.0274
X-2.6882 Y-0.0626
X-2.682 Y-0.0974
X-2.6729 Y-0.1316
X-2.6612 Y-0.165
X-2.6467 Y-0.1974
X-2.6297 Y-0.2285
X-2.6103 Y-0.2582
X-2.5885 Y-0.2862
X-2.5645 Y-0.3125
X-2.5385 Y-0.3367
X-2.5107 Y-0.3587
X-2.4811 Y-0.3785
X-2.45 Y-0.3958
X-2.4177 Y-0.4106
X-2.3842 Y-0.4228
X-2.3499 Y-0.4322
X-2.3149 Y-0.4388
X-2.2795 Y-0.4426
X-2.2439 Y-0.4436
X-2.2084 Y-0.4417
X-2.1731 Y-0.4369
X-2.1381 Y-0.4293
X-2.1037 Y-0.4189
X-2.0698 Y-0.4055
X-2.0366 Y-0.3893
X-2.0043 Y-0.3701
X-1.9731 Y-0.348
X-1.9432 Y-0.3231
X-1.9154 Y-0.2957
X-1.8899 Y-0.2663
X-1.8667 Y-0.2349
X-1.8461 Y-0.2018
X-1.8282 Y-0.1672
X-1.813 Y-0.1313
X-1.8007 Y-0.0943
X-1.7914 Y-0.0564
X-1.7852 Y-0.0179
X-1.7821 Y0.0207
Y0.0593
X-1.7852 Y0.0977
X-1.7913 Y0.1355
X-1.8004 Y0.1727
X-1.8125 Y0.209
X-1.8275 Y0.2441
X-1.8452 Y0.278
X-1.8656 Y0.3104
X-1.8886 Y0.3411
X-1.914 Y0.3699
X-1.9418 Y0.3967
X-1.9718 Y0.4213
X-2.0037 Y0.4435
X-2.0374 Y0.463
X-2.0726 Y0.4799
X-2.109 Y0.4938
X-2.1464 Y0.5049
X-2.1845 Y0.5129
X-2.2232 Y0.518
X-2.2622 Y0.52
X-2.3011 Y0.5189
X-2.3399 Y0.5149
X-2.3783 Y0.5079
X-2.416 Y0.4979
X-2.4528 Y0.4851
X-2.4886 Y0.4696
X-2.523 Y0.4514
X-2.5561 Y0.4306
X-2.5874 Y0.4074
X-2.6169 Y0.3819
X-2.6444 Y0.3543
X-2.6697 Y0.3246
X-2.6927 Y0.2931
X-2.7133 Y0.26
X-2.7314 Y0.2255
X-2.7469 Y0.1897
X-2.7597 Y0.1529
X-2.7698 Y0.1152
X-2.777 Y0.0769
X-2.7815 Y0.0382
X-2.7831 Y-0.0008
X-2.7818 Y-0.0397
X-2.7777 Y-0.0785
X-2.7706 Y-0.1169
X-2.7608 Y-0.1546
X-2.7481 Y-0.1915
X-2.7329 Y-0.2274
X-2.715 Y-0.262
X-2.6947 Y-0.2953
X-2.672 Y-0.327
X-2.6471 Y-0.357
X-2.6201 Y-0.3851
X-2.5911 Y-0.4111
X-2.5602 Y-0.435
X-2.5277 Y-0.4565
X-2.4936 Y-0.4755
X-2.4583 Y-0.492
X-2.4219 Y-0.5058
X-2.3845 Y-0.517
X-2.3464 Y-0.5254
X-2.3079 Y-0.5311
X-2.269 Y-0.5339
X-2.23 Y-0.534
X-2.1911 Y-0.5312
X-2.1525 Y-0.5255
X-2.1145 Y-0.517
X-2.0771 Y-0.5058
X-2.0407 Y-0.4919
X-2.0053 Y-0.4754
X-1.9712 Y-0.4566
X-1.9384 Y-0.4355
X-1.9072 Y-0.4122
X-1.8776 Y-0.3867
X-1.8499 Y-0.3593
X-1.8241 Y-0.3301
X-1.8003 Y-0.2992
X-1.7785 Y-0.2669
X-1.7589 Y-0.2332
X-1.7417 Y-0.1982
X-1.7269 Y-0.1621
X-1.7145 Y-0.1251
X-1.7047 Y-0.0874
X-1.6973 Y-0.0491
X-1.6926 Y-0.0104
X-1.6904 Y0.0285
X-1.691 Y0.0675
X-1.6943 Y0.1064
X-1.7002 Y0.1449
X-1.7087 Y0.1829
X-1.7198 Y0.2203
X-1.7333 Y0.2569
X-1.7494 Y0.2924
X-1.7679 Y0.3267
X-1.7888 Y0.3597
X-1.8118 Y0.3911
X-1.837 Y0.4209
X-1.864 Y0.449
X-1.8929 Y0.4752
X-1.9236 Y0.4993
X-1.9558 Y0.5212
X-1.9895 Y0.5409
X-2.0243 Y0.5583
X-2.0603 Y0.5734
X-2.0972 Y0.586
X-2.1348 Y0.5962
X-2.1731 Y0.6038
X-2.2118 Y0.6088
X-2.2507 Y0.6112
X-2.2897 Y0.6111
X-2.3286 Y0.6085
X-2.3672 Y0.6034
X-2.4054 Y0.5957
X-2.4431 Y0.5855
X-2.48 Y0.5729
X-2.516 Y0.5579
X-2.551 Y0.5407
X-2.5848 Y0.5213
X-2.6173 Y0.4998
X-2.6483 Y0.4762
X-2.6778 Y0.4506
X-2.7055 Y0.4232
X-2.7314 Y0.3941
X-2.7555 Y0.3634
X-2.7775 Y0.3313
X-2.7975 Y0.2978
X-2.8153 Y0.2631
X-2.8308 Y0.2273
X-2.8441 Y0.1906
X-2.855 Y0.1532
X-2.8637 Y0.1152
X-2.87 Y0.0767
X-2.8738 Y0.0379
X-2.8751 Y-0.0011
X-2.8739 Y-0.04
X-2.8703 Y-0.0789
X-2.8642 Y-0.1174
X-2.8559 Y-0.1555
X-2.8451 Y-0.1929
X-2.832 Y-0.2297
X-2.8166 Y-0.2655
X-2.799 Y-0.3002
X-2.7792 Y-0.3339
X-2.7575 Y-0.3662
X-2.7338 Y-0.3972
X-2.7082 Y-0.4266
X-2.6808 Y-0.4544
X-2.6517 Y-0.4803
X-2.621 Y-0.5044
X-2.5889 Y-0.5265
X-2.5555 Y-0.5466
X-2.5209 Y-0.5646
X-2.4853 Y-0.5804
X-2.4487 Y-0.5939
X-2.4113 Y-0.6051
X-2.3734 Y-0.6139
X-2.3349 Y-0.6204
X-2.2961 Y-0.6246
X-2.2572 Y-0.6263
X-2.2182 Y-0.6257
X-2.1794 Y-0.6225
X-2.1408 Y-0.6168
X-2.1026 Y-0.6088
X-2.065 Y-0.5985
X-2.0281 Y-0.586
X-1.992 Y-0.5712
X-1.9569 Y-0.5543
X-1.9228 Y-0.5353
X-1.89 Y-0.5142
X-1.8585 Y-0.4913
X-1.8284 Y-0.4665
X-1.7997 Y-0.44
X-1.7727 Y-0.412
X-1.7473 Y-0.3824
X-1.7237 Y-0.3514
X-1.7019 Y-0.319
X-1.6821 Y-0.2854
X-1.6642 Y-0.2508
X-1.6484 Y-0.2152
X-1.6346 Y-0.1787
X-1.6229 Y-0.1415
X-1.6134 Y-0.1037
X-1.6062 Y-0.0654
X-1.6012 Y-0.0267
X-1.5985 Y0.0122
X-1.598 Y0.0512
X-1.5999 Y0.0901
X-1.6039 Y0.1289
X-1.6103 Y0.1674
X-1.619 Y0.2054
X-1.6299 Y0.2428
X-1.643 Y0.2796
X-1.6582 Y0.3155
X-1.6754 Y0.3504
X-1.6947 Y0.3843
X-1.716 Y0.417
X-1.7392 Y0.4483
X-1.7642 Y0.4782
X-1.7909 Y0.5067
X-1.8192 Y0.5335
X-1.849 Y0.5586
X-1.8803 Y0.582
X-1.9128 Y0.6034
X-1.9466 Y0.6229
X-1.9814 Y0.6404
X-2.0172 Y0.6559
X-2.0538 Y0.6693
X-2.0912 Y0.6806
X-2.1291 Y0.6897
X-2.1674 Y0.6966
X-2.2061 Y0.7013
X-2.2451 Y0.7037
X-2.284 Y0.7039
X-2.323 Y0.702
X-2.3618 Y0.6978
X-2.4002 Y0.6915
X-2.4383 Y0.6831
X-2.4758 Y0.6725
X-2.5127 Y0.6597
X-2.5487 Y0.6449
X-2.5839 Y0.6281
X-2.6182 Y0.6095
X-2.6513 Y0.5889
X-2.6832 Y0.5666
X-2.7139 Y0.5424
X-2.7431 Y0.5166
X-2.7708 Y0.4892
X-2.797 Y0.4603
X-2.8215 Y0.43
X-2.8444 Y0.3984
X-2.8655 Y0.3656
X-2.8847 Y0.3317
X-2.9021 Y0.2968
X-2.9175 Y0.261
X-2.9308 Y0.2243
X-2.9422 Y0.187
X-2.9515 Y0.1492
X-2.9588 Y0.1109
X-2.964 Y0.0722
X-2.9671 Y0.0334
X-2.968 Y-0.0056
X-2.9667 Y-0.0446
X-2.9633 Y-0.0834
X-2.9578 Y-0.122
X-2.9502 Y-0.1603
X-2.9406 Y-0.1981
X-2.929 Y-0.2353
X-2.9153 Y-0.2718
X-2.8996 Y-0.3075
X-2.882 Y-0.3423
X-2.8625 Y-0.376
X-2.8413 Y-0.4087
X-2.8183 Y-0.4402
X-2.7937 Y-0.4705
X-2.7674 Y-0.4993
X-2.7397 Y-0.5267
X-2.7104 Y-0.5524
X-2.6798 Y-0.5766
X-2.6479 Y-0.599
X-2.6148 Y-0.6197
X-2.5807 Y-0.6386
X-2.5457 Y-0.6556
X-2.5097 Y-0.6707
X-2.473 Y-0.6838
X-2.4356 Y-0.6949
X-2.3977 Y-0.7039
X-2.3593 Y-0.7108
X-2.3206 Y-0.7158
X-2.2817 Y-0.7186
X-2.2427 Y-0.7193
X-2.2038 Y-0.718
X-2.1649 Y-0.7144
X-2.1264 Y-0.7087
X-2.0882 Y-0.701
X-2.0504 Y-0.6912
X-2.0132 Y-0.6795
X-1.9767 Y-0.6658
X-1.9409 Y-0.6503
X-1.9061 Y-0.6329
X-1.8722 Y-0.6136
X-1.8394 Y-0.5925
X-1.8077 Y-0.5698
X-1.7772 Y-0.5455
X-1.748 Y-0.5196
X-1.7201 Y-0.4923
X-1.6937 Y-0.4637
X-1.6688 Y-0.4337
X-1.6454 Y-0.4025
X-1.6237 Y-0.3701
X-1.6037 Y-0.3366
X-1.5854 Y-0.3022
X-1.5689 Y-0.2669
X-1.5541 Y-0.2308
X-1.5412 Y-0.194
X-1.5301 Y-0.1566
X-1.5211 Y-0.1187
X-1.514 Y-0.0804
X-1.5089 Y-0.0417
X-1.5058 Y-0.0028
X-1.5046 Y0.0361
X-1.5055 Y0.0751
X-1.5083 Y0.114
X-1.5131 Y0.1527
X-1.5199 Y0.1911
X-1.5287 Y0.2291
X-1.5395 Y0.2665
X-1.5522 Y0.3034
X-1.5668 Y0.3396
X-1.5832 Y0.3749
X-1.6014 Y0.4094
X-1.6213 Y0.4429
X-1.6429 Y0.4754
X-1.6663 Y0.5066
X-1.6912 Y0.5366
X-1.7177 Y0.5652
X-1.7455 Y0.5925
X-1.7747 Y0.6184
X-1.8052 Y0.6427
X-1.8369 Y0.6654
X-1.8697 Y0.6865
X-1.9035 Y0.7058
X-1.9383 Y0.7234
X-1.974 Y0.7391
X-2.0104 Y0.7531
X-2.0475 Y0.7652
X-2.0851 Y0.7755
X-2.1232 Y0.7838
X-2.1616 Y0.7902
X-2.2004 Y0.7946
X-2.2393 Y0.7971
X-2.2783 Y0.7976
X-2.3172 Y0.7961
X-2.3561 Y0.7927
X-2.3947 Y0.7875
X-2.4331 Y0.7803
X-2.471 Y0.7713
X-2.5084 Y0.7603
X-2.5452 Y0.7475
X-2.5813 Y0.7328
X-2.6167 Y0.7164
X-2.6512 Y0.6983
X-2.6849 Y0.6785
X-2.7175 Y0.6571
X-2.749 Y0.6342
X-2.7793 Y0.6097
X-2.8084 Y0.5837
X-2.8362 Y0.5564
X-2.8625 Y0.5276
X-2.8875 Y0.4977
X-2.911 Y0.4665
X-2.9329 Y0.4343
X-2.9533 Y0.4011
X-2.9721 Y0.3669
X-2.9891 Y0.3318
X-3.0044 Y0.296
X-3.0179 Y0.2594
X-3.0296 Y0.2222
X-3.0396 Y0.1845
X-3.0477 Y0.1464
X-3.054 Y0.1079
X-3.0585 Y0.0692
X-3.0611 Y0.0303
X-3.0617 Y-0.0087
X-3.0604 Y-0.0477
X-3.0573 Y-0.0866
X-3.0522 Y-0.1252
X-3.0454 Y-0.1636
X-3.0367 Y-0.2016
X-3.0262 Y-0.2392
X-3.014 Y-0.2762
X-2.9999 Y-0.3126
X-2.9841 Y-0.3482
X-2.9665 Y-0.383
X-2.9473 Y-0.417
X-2.9265 Y-0.4499
X-2.9042 Y-0.4819
X-2.8804 Y-0.5128
X-2.8552 Y-0.5425
X-2.8285 Y-0.571
X-2.8005 Y-0.5981
X-2.7712 Y-0.6238
X-2.7407 Y-0.6481
X-2.709 Y-0.6708
X-2.6763 Y-0.6921
X-2.6427 Y-0.7117
X-2.6081 Y-0.7298
X-2.5727 Y-0.7462
X-2.5366 Y-0.7609
X-2.4998 Y-0.7737
X-2.4624 Y-0.7848
X-2.4245 Y-0.794
X-2.3863 Y-0.8015
X-2.3477 Y-0.8071
X-2.3089 Y-0.8109
X-2.2699 Y-0.8128
X-2.2309 Y-0.813
X-2.192 Y-0.8112
X-2.1532 Y-0.8074
X-2.1146 Y-0.8019
X-2.0763 Y-0.7944
X-2.0384 Y-0.7852
X-2.001 Y-0.7743
X-1.9641 Y-0.7616
X-1.9279 Y-0.7472
X-1.8923 Y-0.7312
X-1.8576 Y-0.7135
X-1.8238 Y-0.6941
X-1.7909 Y-0.6731
X-1.759 Y-0.6507
X-1.7282 Y-0.6268
X-1.6984 Y-0.6016
X-1.6699 Y-0.5751
X-1.6425 Y-0.5473
X-1.6165 Y-0.5183
X-1.5918 Y-0.4881
X-1.5686 Y-0.4568
X-1.5468 Y-0.4244
X-1.5265 Y-0.3911
X-1.5077 Y-0.3569
X-1.4905 Y-0.322
X-1.4749 Y-0.2862
X-1.4608 Y-0.2499
X-1.4484 Y-0.2129
X-1.4378 Y-0.1754
X-1.4289 Y-0.1374
X-1.4217 Y-0.0991
X-1.4164 Y-0.0605
X-1.4127 Y-0.0217
X-1.4109 Y0.0173
X-1.4107 Y0.0563
X-1.4124 Y0.0952
X-1.4158 Y0.1341
X-1.421 Y0.1727
X-1.428 Y0.2111
X-1.4368 Y0.2491
X-1.4473 Y0.2866
X-1.4595 Y0.3236
X-1.4734 Y0.36
X-1.489 Y0.3958
X-1.5061 Y0.4308
X-1.5248 Y0.465
X-1.5451 Y0.4984
X-1.5669 Y0.5307
X-1.5902 Y0.5619
X-1.6149 Y0.5921
X-1.641 Y0.6211
X-1.6683 Y0.6489
X-1.6969 Y0.6754
X-1.7266 Y0.7006
X-1.7575 Y0.7245
X-1.7894 Y0.7469
X-1.8223 Y0.7678
X-1.8561 Y0.7871
X-1.8908 Y0.8049
X-1.9263 Y0.8211
X-1.9625 Y0.8357
X-1.9992 Y0.8487
X-2.0366 Y0.86
X-2.0743 Y0.8697
X-2.1125 Y0.8776
X-2.151 Y0.8838
X-2.1897 Y0.8882
X-2.2286 Y0.8908
X-2.2676 Y0.8918
X-2.3066 Y0.8909
X-2.3455 Y0.8884
X-2.3843 Y0.8842
X-2.4228 Y0.8783
X-2.4611 Y0.8707
X-2.4989 Y0.8613
X-2.5363 Y0.8503
X-2.5732 Y0.8376
X-2.6094 Y0.8233
X-2.645 Y0.8074
X-2.6799 Y0.7899
X-2.714 Y0.771
X-2.7472 Y0.7506
X-2.7796 Y0.7288
X-2.8109 Y0.7056
X-2.8411 Y0.681
X-2.8702 Y0.655
X-2.8981 Y0.6278
X-2.9249 Y0.5994
X-2.9503 Y0.5699
X-2.9745 Y0.5393
X-2.9973 Y0.5077
X-3.0188 Y0.4751
X-3.0388 Y0.4417
X-3.0574 Y0.4074
X-3.0743 Y0.3723
X-3.0898 Y0.3365
X-3.1036 Y0.3
X-3.1159 Y0.263
X-3.1266 Y0.2255
X-3.1356 Y0.1876
X-3.1431 Y0.1493
X-3.1489 Y0.1108
X-3.153 Y0.072
X-3.1554 Y0.0331
X-3.1561 Y-0.0059
X-3.155 Y-0.0449
X-3.1523 Y-0.0838
X-3.1479 Y-0.1225
X-3.1419 Y-0.1611
X-3.1342 Y-0.1993
X-3.125 Y-0.2372
X-3.1141 Y-0.2746
X-3.1016 Y-0.3115
X-3.0874 Y-0.3479
X-3.0717 Y-0.3835
X-3.0545 Y-0.4185
X-3.0357 Y-0.4527
X-3.0156 Y-0.4861
X-2.994 Y-0.5186
X-2.9711 Y-0.5501
X-2.9469 Y-0.5807
X-2.9214 Y-0.6102
X-2.8946 Y-0.6385
X-2.8665 Y-0.6656
X-2.8374 Y-0.6914
X-2.8071 Y-0.716
X-2.7758 Y-0.7393
X-2.7436 Y-0.7612
X-2.7104 Y-0.7817
X-2.6764 Y-0.8008
X-2.6417 Y-0.8185
X-2.6062 Y-0.8346
X-2.57 Y-0.8492
X-2.5332 Y-0.8621
X-2.4959 Y-0.8734
X-2.4581 Y-0.8831
X-2.42 Y-0.8913
X-2.3815 Y-0.8978
X-2.3429 Y-0.9026
X-2.304 Y-0.9059
X-2.265 Y-0.9075
X-2.2261 Y-0.9073
X-2.1871 Y-0.9054
X-2.1483 Y-0.9019
X-2.1096 Y-0.8967
X-2.0713 Y-0.8898
X-2.0332 Y-0.8814
X-1.9955 Y-0.8713
X-1.9583 Y-0.8597
X-1.9216 Y-0.8466
X-1.8854 Y-0.8319
X-1.85 Y-0.8157
X-1.8153 Y-0.798
X-1.7813 Y-0.7788
X-1.7482 Y-0.7582
X-1.716 Y-0.7363
X-1.6847 Y-0.713
X-1.6543 Y-0.6885
X-1.625 Y-0.6628
X-1.5968 Y-0.6359
X-1.5696 Y-0.6079
X-1.5437 Y-0.5788
X-1.519 Y-0.5486
X-1.4956 Y-0.5174
X-1.4735 Y-0.4853
X-1.4528 Y-0.4523
X-1.4334 Y-0.4185
X-1.4153 Y-0.3839
X-1.3987 Y-0.3487
X-1.3834 Y-0.3128
X-1.3697 Y-0.2763
X-1.3575 Y-0.2393
X-1.3468 Y-0.2018
X-1.3378 Y-0.1638
X-1.3303 Y-0.1256
X-1.3243 Y-0.087
X-1.32 Y-0.0483
X-1.3172 Y-0.0094
X-1.316 Y0.0296
X-1.3163 Y0.0686
X-1.3183 Y0.1075
X-1.3219 Y0.1463
X-1.3271 Y0.185
X-1.334 Y0.2234
X-1.3424 Y0.2614
X-1.3524 Y0.2991
X-1.3639 Y0.3364
X-1.3769 Y0.3731
X-1.3915 Y0.4093
X-1.4074 Y0.4449
X-1.4248 Y0.4798
X-1.4437 Y0.5139
X-1.464 Y0.5472
X-1.4857 Y0.5796
X-1.5087 Y0.6111
X-1.533 Y0.6416
X-1.5585 Y0.6711
X-1.5851 Y0.6995
X-1.6129 Y0.7268
X-1.6418 Y0.753
X-1.6717 Y0.778
X-1.7027 Y0.8017
X-1.7346 Y0.8241
X-1.7674 Y0.8452
X-1.8011 Y0.8648
X-1.8356 Y0.8831
X-1.8707 Y0.9
X-1.9065 Y0.9154
X-1.9429 Y0.9294
X-1.9798 Y0.9419
X-2.0172 Y0.953
X-2.055 Y0.9625
X-2.0932 Y0.9704
X-2.1317 Y0.9767
X-2.1704 Y0.9814
X-2.2093 Y0.9846
X-2.2482 Y0.9862
X-2.2872 Y0.9863
X-2.3262 Y0.9848
X-2.365 Y0.9818
X-2.4038 Y0.9773
X-2.4423 Y0.9711
X-2.4805 Y0.9635
X-2.5184 Y0.9542
X-2.5559 Y0.9434
X-2.5929 Y0.9312
X-2.6294 Y0.9174
X-2.6653 Y0.9023
X-2.7006 Y0.8858
X-2.7352 Y0.8678
X-2.7691 Y0.8486
X-2.8023 Y0.828
X-2.8345 Y0.8061
X-2.8658 Y0.7829
X-2.8962 Y0.7584
X-2.9256 Y0.7328
X-2.9539 Y0.706
X-2.9812 Y0.6781
X-3.0073 Y0.6492
X-3.0324 Y0.6193
X-3.0562 Y0.5885
X-3.0788 Y0.5567
X-3.1002 Y0.5241
X-3.1202 Y0.4906
X-3.1388 Y0.4564
X-3.1561 Y0.4214
X-3.1719 Y0.3858
X-3.1864 Y0.3496
X-3.1995 Y0.3128
X-3.2111 Y0.2756
X-3.2213 Y0.238
X-3.2301 Y0.2
X-3.2373 Y0.1617
X-3.243 Y0.1231
X-3.2472 Y0.0844
X-3.2498 Y0.0455
X-3.2509 Y0.0065
X-3.2504 Y-0.0325
X-3.2484 Y-0.0715
X-3.245 Y-0.1103
X-3.24 Y-0.149
X-3.2336 Y-0.1874
X-3.2257 Y-0.2256
X-3.2163 Y-0.2634
X-3.2053 Y-0.3009
X-3.1929 Y-0.3378
X-3.1791 Y-0.3743
X-3.1638 Y-0.4102
X-3.1472 Y-0.4454
X-3.1292 Y-0.48
X-3.1099 Y-0.5139
X-3.0893 Y-0.547
X-3.0674 Y-0.5793
X-3.0444 Y-0.6107
X-3.0201 Y-0.6412
X-2.9946 Y-0.6707
X-2.9679 Y-0.6992
X-2.9402 Y-0.7266
X-2.9114 Y-0.7528
X-2.8816 Y-0.778
X-2.8508 Y-0.802
X-2.8192 Y-0.8248
X-2.7867 Y-0.8463
X-2.7534 Y-0.8666
X-2.7194 Y-0.8856
X-2.6846 Y-0.9032
X-2.6491 Y-0.9194
X-2.613 Y-0.9342
X-2.5764 Y-0.9476
X-2.5393 Y-0.9596
X-2.5017 Y-0.9701
X-2.4638 Y-0.9791
X-2.4256 Y-0.9868
X-2.3871 Y-0.9929
X-2.3484 Y-0.9976
X-2.3095 Y-1.0007
X-2.2705 Y-1.0023
X-2.2316
X-2.1926 Y-1.0008
X-2.1537 Y-0.9978
X-2.115 Y-0.9933
X-2.0765 Y-0.9873
X-2.0382 Y-0.9799
X-2.0002 Y-0.971
X-1.9626 Y-0.9607
X-1.9254 Y-0.949
X-1.8887 Y-0.9358
X-1.8526 Y-0.9212
X-1.817 Y-0.9052
X-1.7821 Y-0.8878
X-1.7479 Y-0.8692
X-1.7144 Y-0.8492
X-1.6816 Y-0.828
X-1.6497 Y-0.8057
X-1.6186 Y-0.7821
X-1.5885 Y-0.7574
X-1.5592 Y-0.7316
X-1.531 Y-0.7047
X-1.5038 Y-0.6768
X-1.4777 Y-0.6478
X-1.4527 Y-0.6179
X-1.4288 Y-0.5871
X-1.4061 Y-0.5554
X-1.3846 Y-0.5229
X-1.3643 Y-0.4896
X-1.3452 Y-0.4556
X-1.3274 Y-0.4209
X-1.3108 Y-0.3856
X-1.2956 Y-0.3497
X-1.2818 Y-0.3132
X-1.2694 Y-0.2763
X-1.2584 Y-0.2389
X-1.2488 Y-0.2011
X-1.2405 Y-0.163
X-1.2337 Y-0.1246
X-1.2284 Y-0.086
X-1.2244 Y-0.0472
X-1.2218 Y-0.0083
X-1.2207 Y0.0307
X-1.2211 Y0.0697
X-1.223 Y0.1086
X-1.2264 Y0.1475
X-1.2312 Y0.1862
X-1.2375 Y0.2247
X-1.2452 Y0.2629
X-1.2543 Y0.3008
X-1.2648 Y0.3383
X-1.2767 Y0.3755
X-1.29 Y0.4121
X-1.3046 Y0.4483
X-1.3206 Y0.4839
X-1.3379 Y0.5188
X-1.3566 Y0.553
X-1.3765 Y0.5865
X-1.3977 Y0.6193
X-1.4201 Y0.6512
X-1.4436 Y0.6823
X-1.4683 Y0.7124
X-1.4941 Y0.7417
X-1.5209 Y0.77
X-1.5488 Y0.7972
X-1.5777 Y0.8234
X-1.6076 Y0.8485
X-1.6384 Y0.8724
X-1.67 Y0.8951
X-1.7025 Y0.9167
X-1.7358 Y0.937
X-1.7698 Y0.9561
X-1.8045 Y0.9739
X-1.8398 Y0.9904
X-1.8757 Y1.0057
X-1.9121 Y1.0196
X-1.9491 Y1.0321
X-1.9864 Y1.0432
X-2.0242 Y1.0529
X-2.0623 Y1.0612
X-2.1007 Y1.0681
X-2.1393 Y1.0736
X-2.178 Y1.0777
X-2.2169 Y1.0803
X-2.2559 Y1.0816
X-2.2949 Y1.0814
X-2.3339 Y1.0798
X-2.3727 Y1.0768
X-2.4115 Y1.0723
X-2.45 Y1.0664
X-2.4883 Y1.0591
X-2.5263 Y1.0504
X-2.564 Y1.0403
X-2.6012 Y1.0288
X-2.6381 Y1.0161
X-2.6744 Y1.002
X-2.7103 Y0.9866
X-2.7455 Y0.9699
X-2.7801 Y0.952
X-2.8141 Y0.9328
X-2.8473 Y0.9123
X-2.8797 Y0.8907
X-2.9113 Y0.8679
X-2.9421 Y0.8439
X-2.972 Y0.8189
X-3.001 Y0.7928
X-3.029 Y0.7657
X-3.0561 Y0.7376
X-3.0821 Y0.7086
X-3.1071 Y0.6787
X-3.1309 Y0.6478
X-3.1536 Y0.6161
X-3.1752 Y0.5836
X-3.1956 Y0.5504
X-3.2147 Y0.5164
X-3.2326 Y0.4818
X-3.2493 Y0.4466
X-3.2647 Y0.4107
X-3.2789 Y0.3744
X-3.2918 Y0.3376
X-3.3033 Y0.3004
X-3.3135 Y0.2627
X-3.3223 Y0.2247
X-3.3297 Y0.1865
X-3.3358 Y0.148
X-3.3405 Y0.1092
X-3.3437 Y0.0704
X-3.3456 Y0.0314
X-3.3461 Y-0.0075
X-3.3453 Y-0.0465
X-3.343 Y-0.0854
X-3.3394 Y-0.1243
X-3.3344 Y-0.1629
X-3.328 Y-0.2014
X-3.3202 Y-0.2396
X-3.3111 Y-0.2775
X-3.3006 Y-0.3151
X-3.2888 Y-0.3522
X-3.2756 Y-0.3889
X-3.2612 Y-0.4251
X-3.2455 Y-0.4608
X-3.2285 Y-0.4959
X-3.2103 Y-0.5304
X-3.1909 Y-0.5643
X-3.1704 Y-0.5974
X-3.1486 Y-0.6297
X-3.1257 Y-0.6613
X-3.1017 Y-0.692
X-3.0765 Y-0.7218
X-3.0504 Y-0.7507
X-3.0232 Y-0.7787
X-2.9951 Y-0.8057
X-2.966 Y-0.8316
X-2.936 Y-0.8566
X-2.9052 Y-0.8805
X-2.8735 Y-0.9032
X-2.8411 Y-0.9248
X-2.8079 Y-0.9453
X-2.7739 Y-0.9645
X-2.7393 Y-0.9825
X-2.7041 Y-0.9992
X-2.6684 Y-1.0147
X-2.632 Y-1.0289
X-2.5953 Y-1.0418
X-2.558 Y-1.0535
X-2.5204 Y-1.0638
X-2.4825 Y-1.0728
X-2.4443 Y-1.0804
X-2.4058 Y-1.0866
X-2.3671 Y-1.0915
X-2.3283 Y-1.095
X-2.2893 Y-1.0971
X-2.2503 Y-1.0977
X-2.2113 Y-1.0971
X-2.1724 Y-1.095
X-2.1336 Y-1.0916
X-2.0949 Y-1.0868
X-2.0564 Y-1.0807
X-2.0181 Y-1.0732
X-1.9801 Y-1.0644
X-1.9425 Y-1.0543
X-1.9052 Y-1.0428
X-1.8684 Y-1.03
X-1.832 Y-1.0159
X-1.7962 Y-1.0005
X-1.7609 Y-0.984
X-1.7262 Y-0.9662
X-1.6921 Y-0.9472
X-1.6587 Y-0.9271
X-1.6261 Y-0.9058
X-1.5941 Y-0.8834
X-1.563 Y-0.8599
X-1.5327 Y-0.8354
X-1.5033 Y-0.8098
X-1.4748 Y-0.7832
X-1.4472 Y-0.7557
X-1.4205 Y-0.7272
X-1.3949 Y-0.6978
X-1.3703 Y-0.6676
X-1.3467 Y-0.6366
X-1.3241 Y-0.6047
X-1.3027 Y-0.5722
X-1.2824 Y-0.5389
X-1.2632 Y-0.5049
X-1.2452 Y-0.4703
X-1.2284 Y-0.4352
X-1.2128 Y-0.3994
X-1.1985 Y-0.3632
X-1.1854 Y-0.3264
X-1.1736 Y-0.2893
X-1.163 Y-0.2518
X-1.1537 Y-0.2139
X-1.1457 Y-0.1757
X-1.139 Y-0.1373
X-1.1336 Y-0.0987
X-1.1295 Y-0.0599
X-1.1268 Y-0.021
X-1.1254 Y0.0179
Y0.0569
X-1.1267 Y0.0959
X-1.1293 Y0.1348
X-1.1333 Y0.1736
X-1.1386 Y0.2122
X-1.1452 Y0.2506
X-1.1531 Y0.2888
X-1.1623 Y0.3267
X-1.1728 Y0.3643
X-1.1846 Y0.4014
X-1.1977 Y0.4382
X-1.212 Y0.4744
X-1.2276 Y0.5102
X-1.2444 Y0.5454
X-1.2624 Y0.5799
X-1.2816 Y0.6139
X-1.3019 Y0.6472
X-1.3233 Y0.6797
X-1.3459 Y0.7116
X-1.3695 Y0.7426
X-1.3941 Y0.7728
X-1.4198 Y0.8021
X-1.4465 Y0.8305
X-1.4742 Y0.858
X-1.5028 Y0.8845
X-1.5322 Y0.9101
X-1.5626 Y0.9346
X-1.5937 Y0.958
X-1.6256 Y0.9804
X-1.6583 Y1.0017
X-1.6917 Y1.0219
X-1.7257 Y1.0409
X-1.7604 Y1.0587
X-1.7956 Y1.0754
X-1.8314 Y1.0908
X-1.8677 Y1.105
X-1.9045 Y1.118
X-1.9417 Y1.1297
X-1.9793 Y1.1401
X-2.0172 Y1.1493
X-2.0554 Y1.1572
X-2.0938 Y1.1638
X-2.1324 Y1.1691
X-2.1712 Y1.1731
X-2.2101 Y1.1757
X-2.2491 Y1.1771
X-2.2881 Y1.1772
X-2.327 Y1.1759
X-2.3659 Y1.1733
X-2.4047 Y1.1694
X-2.4434 Y1.1642
X-2.4818 Y1.1578
X-2.52 Y1.15
X-2.558 Y1.141
X-2.5956 Y1.1307
X-2.6328 Y1.1192
X-2.6697 Y1.1064
X-2.7061 Y1.0924
X-2.742 Y1.0772
X-2.7773 Y1.0608
X-2.8121 Y1.0432
X-2.8463 Y1.0245
X-2.8799 Y1.0046
X-2.9128 Y0.9837
X-2.9449 Y0.9617
X-2.9764 Y0.9386
X-3.007 Y0.9144
X-3.0368 Y0.8893
X-3.0658 Y0.8632
X-3.0939 Y0.8362
X-3.1211 Y0.8082
X-3.1473 Y0.7794
X-3.1725 Y0.7497
X-3.1968 Y0.7192
X-3.2201 Y0.6878
X-3.2422 Y0.6558
X-3.2634 Y0.623
X-3.2834 Y0.5896
X-3.3023 Y0.5555
X-3.3201 Y0.5208
X-3.3368 Y0.4855
X-3.3522 Y0.4497
X-3.3665 Y0.4135
X-3.3796 Y0.3767
X-3.3915 Y0.3396
X-3.4021 Y0.3021
X-3.4115 Y0.2642
X-3.4196 Y0.2261
X-3.4265 Y0.1877
X-3.4321 Y0.1491
X-3.4365 Y0.1104
X-3.4396 Y0.0715
X-3.4414 Y0.0326
X-3.4419 Y-0.0064
X-3.4411 Y-0.0454
X-3.4391 Y-0.0843
X-3.4358 Y-0.1232
X-3.4312 Y-0.1619
X-3.4253 Y-0.2005
X-3.4182 Y-0.2388
X-3.4098 Y-0.2769
X-3.4002 Y-0.3147
X-3.3893 Y-0.3521
X-3.3773 Y-0.3892
X-3.364 Y-0.4259
X-3.3495 Y-0.4621
X-3.3339 Y-0.4978
X-3.3171 Y-0.5329
X-3.2991 Y-0.5676
X-3.28 Y-0.6016
X-3.2598 Y-0.6349
X-3.2386 Y-0.6676
X-3.2163 Y-0.6996
X-3.1929 Y-0.7308
X-3.1686 Y-0.7612
X-3.1432 Y-0.7909
X-3.1169 Y-0.8197
X-3.0897 Y-0.8476
X-3.0616 Y-0.8746
X-3.0326 Y-0.9007
X-3.0027 Y-0.9258
X-2.9721 Y-0.9499
X-2.9407 Y-0.973
X-2.9085 Y-0.995
X-2.8757 Y-1.016
X-2.8422 Y-1.0359
X-2.808 Y-1.0547
X-2.7732 Y-1.0724
X-2.7379 Y-1.089
X-2.7021 Y-1.1044
X-2.6658 Y-1.1185
X-2.629 Y-1.1315
X-2.5919 Y-1.1433
X-2.5543 Y-1.1539
X-2.5165 Y-1.1632
X-2.4783 Y-1.1713
X-2.44 Y-1.1782
X-2.4014 Y-1.1838
X-2.3626 Y-1.1881
X-2.3237 Y-1.1911
X-2.2848 Y-1.1929
X-2.2458 Y-1.1935
X-2.2068 Y-1.1927
X-2.1679 Y-1.1907
X-2.129 Y-1.1874
X-2.0903 Y-1.1829
X-2.0518 Y-1.1771
X-2.0134 Y-1.17
X-1.9753 Y-1.1617
X-1.9375 Y-1.1522
X-1.9 Y-1.1415
X-1.8629 Y-1.1295
X-1.8262 Y-1.1164
X-1.7899 Y-1.1021
X-1.7541 Y-1.0867
X-1.7188 Y-1.0701
X-1.6841 Y-1.0523
X-1.65 Y-1.0335
X-1.6164 Y-1.0136
X-1.5836 Y-0.9926
X-1.5514 Y-0.9706
X-1.5199 Y-0.9476
X-1.4892 Y-0.9236
X-1.4592 Y-0.8986
X-1.4301 Y-0.8727
X-1.4018 Y-0.8459
X-1.3743 Y-0.8182
X-1.3478 Y-0.7897
X-1.3221 Y-0.7603
X-1.2974 Y-0.7301
X-1.2737 Y-0.6992
X-1.2509 Y-0.6675
X-1.2292 Y-0.6352
X-1.2085 Y-0.6021
X-1.1888 Y-0.5684
X-1.1702 Y-0.5342
X-1.1527 Y-0.4993
X-1.1363 Y-0.464
X-1.121 Y-0.4281
X-1.1068 Y-0.3918
X-1.0938 Y-0.355
X-1.082 Y-0.3179
X-1.0713 Y-0.2804
X-1.0619 Y-0.2425
X-1.0536 Y-0.2044
X-1.0466 Y-0.1661
X-1.0407 Y-0.1275
X-1.0361 Y-0.0888
X-1.0326 Y-0.05
X-1.0304 Y-0.0111
X-1.0295 Y0.0279
X-1.0297 Y0.0669
X-1.0312 Y0.1059
X-1.0339 Y0.1448
X-1.0379 Y0.1836
X-1.0431 Y0.2222
X-1.0495 Y0.2607
X-1.0572 Y0.2989
X-1.066 Y0.3369
X-1.076 Y0.3745
X-1.0873 Y0.4119
X-1.0996 Y0.4489
X-1.1132 Y0.4854
X-1.1279 Y0.5215
X-1.1437 Y0.5572
X-1.1607 Y0.5923
X-1.1787 Y0.6268
X-1.1979 Y0.6608
X-1.2181 Y0.6941
X-1.2394 Y0.7268
X-1.2617 Y0.7588
X-1.285 Y0.79
X-1.3093 Y0.8206
X-1.3345 Y0.8503
X-1.3606 Y0.8792
X-1.3877 Y0.9073
X-1.4156 Y0.9345
X-1.4444 Y0.9609
X-1.4739 Y0.9863
X-1.5043 Y1.0107
X-1.5354 Y1.0342
X-1.5673 Y1.0567
X-1.5998 Y1.0782
X-1.633 Y1.0986
X-1.6669 Y1.118
X-1.7013 Y1.1363
X-1.7363 Y1.1535
X-1.7718 Y1.1696
X-1.8078 Y1.1846
X-1.8442 Y1.1985
X-1.8811 Y1.2112
X-1.9183 Y1.2228
X-1.9559 Y1.2332
X-1.9938 Y1.2424
X-2.0319 Y1.2504
X-2.0703 Y1.2572
X-2.1089 Y1.2628
X-2.1476 Y1.2672
X-2.1865 Y1.2704
X-2.2254 Y1.2724
X-2.2644 Y1.2731
X-2.3034 Y1.2727
X-2.3424 Y1.2711
X-2.3813 Y1.2683
X-2.42 Y1.2642
X-2.4587 Y1.259
X-2.4971 Y1.2525
X-2.5354 Y1.2449
X-2.5733 Y1.2361
X-2.611 Y1.2261
X-2.6484 Y1.2149
X-2.6854 Y1.2026
X-2.722 Y1.1892
X-2.7582 Y1.1746
X-2.7939 Y1.159
X-2.8291 Y1.1422
X-2.8638 Y1.1244
X-2.8979 Y1.1056
X-2.9314 Y1.0857
X-2.9643 Y1.0647
X-2.9965 Y1.0427
X-3.0281 Y1.0198
X-3.0589 Y0.9959
X-3.0889 Y0.9711
X-3.1182 Y0.9453
X-3.1467 Y0.9187
X-3.1744 Y0.8912
X-3.2012 Y0.8629
X-3.2271 Y0.8338
X-3.2522 Y0.8039
X-3.2763 Y0.7733
X-3.2994 Y0.7419
X-3.3216 Y0.7098
X-3.3428 Y0.6771
X-3.363 Y0.6437
X-3.3821 Y0.6098
X-3.4002 Y0.5752
X-3.4173 Y0.5402
X-3.4332 Y0.5046
X-3.4481 Y0.4686
X-3.4619 Y0.4321
X-3.4746 Y0.3952
X-3.4861 Y0.358
X-3.4965 Y0.3204
X-3.5058 Y0.2825
X-3.5139 Y0.2444
X-3.5208 Y0.206
X-3.5266 Y0.1675
X-3.5311 Y0.1287
X-3.5345 Y0.0899
X-3.5367 Y0.051
X-3.5378 Y0.012
X-3.5376 Y-0.027
X-3.5363 Y-0.066
X-3.5338 Y-0.1049
X-3.5301 Y-0.1437
X-3.5252 Y-0.1824
X-3.5192 Y-0.2209
X-3.512 Y-0.2592
X-3.5037 Y-0.2973
X-3.4941 Y-0.3351
X-3.4835 Y-0.3726
X-3.4717 Y-0.4098
X-3.4587 Y-0.4466
X-3.4447 Y-0.4829
X-3.4296 Y-0.5189
X-3.4134 Y-0.5544
X-3.3961 Y-0.5893
X-3.3778 Y-0.6237
X-3.3585 Y-0.6576
X-3.3381 Y-0.6909
X-3.3168 Y-0.7235
X-3.2944 Y-0.7554
X-3.2711 Y-0.7867
X-3.2469 Y-0.8172
X-3.2217 Y-0.847
X-3.1957 Y-0.876
X-3.1687 Y-0.9042
X-3.141 Y-0.9316
X-3.1124 Y-0.9582
X-3.0831 Y-0.9838
X-3.0529 Y-1.0086
X-3.0221 Y-1.0324
X-2.9905 Y-1.0553
X-2.9583 Y-1.0773
X-2.9254 Y-1.0982
X-2.8919 Y-1.1181
X-2.8578 Y-1.137
X-2.8231 Y-1.1549
X-2.788 Y-1.1717
X-2.7523 Y-1.1874
X-2.7161 Y-1.2021
X-2.6796 Y-1.2156
X-2.6426 Y-1.2281
X-2.6053 Y-1.2394
X-2.5677 Y-1.2496
X-2.5298 Y-1.2587
X-2.4916 Y-1.2666
X-2.4532 Y-1.2733
X-2.4146 Y-1.2789
X-2.3759 Y-1.2833
X-2.337 Y-1.2865
X-2.2981 Y-1.2886
X-2.2591 Y-1.2895
X-2.2201 Y-1.2892
X-2.1811 Y-1.2877
X-2.1422 Y-1.285
X-2.1034 Y-1.2812
X-2.0647 Y-1.2762
X-2.0262 Y-1.2701
X-1.9879 Y-1.2628
X-1.9499 Y-1.2544
X-1.9121 Y-1.2449
X-1.8746 Y-1.2342
X-1.8374 Y-1.2223
X-1.8006 Y-1.2094
X-1.7642 Y-1.1954
X-1.7283 Y-1.1803
X-1.6928 Y-1.1641
X-1.6578 Y-1.1469
X-1.6234 Y-1.1287
X-1.5895 Y-1.1094
X-1.5561 Y-1.0892
X-1.5234 Y-1.068
X-1.4913 Y-1.0458
X-1.4599 Y-1.0227
X-1.4292 Y-0.9987
X-1.3992 Y-0.9738
X-1.37 Y-0.948
X-1.3415 Y-0.9214
X-1.3138 Y-0.8939
X-1.287 Y-0.8656
X-1.261 Y-0.8366
X-1.2358 Y-0.8068
X-1.2115 Y-0.7763
X-1.1882 Y-0.7451
X-1.1657 Y-0.7132
X-1.1442 Y-0.6807
X-1.1236 Y-0.6476
X-1.104 Y-0.6139
X-1.0854 Y-0.5796
X-1.0678 Y-0.5448
X-1.0513 Y-0.5095
X-1.0358 Y-0.4737
X-1.0213 Y-0.4375
X-1.0079 Y-0.4009
X-0.9956 Y-0.3639
X-0.9844 Y-0.3265
X-0.9743 Y-0.2889
X-0.9652 Y-0.251
X-0.9573 Y-0.2128
X-0.9505 Y-0.1744
X-0.9448 Y-0.1358
X-0.9402 Y-0.0971
X-0.9368 Y-0.0583
X-0.9345 Y-0.0193
X-0.9334 Y0.0196
Y0.0586
X-0.9346 Y0.0976
X-0.9369 Y0.1365
X-0.9403 Y0.1754
X-0.9449 Y0.2141
X-0.9506 Y0.2527
X-0.9575 Y0.291
X-0.9654 Y0.3292
X-0.9745 Y0.3671
X-0.9847 Y0.4048
X-0.9959 Y0.4421
X-1.0083 Y0.4791
X-1.0218 Y0.5157
X-1.0363 Y0.5518
X-1.0519 Y0.5876
X-1.0686 Y0.6228
X-1.0862 Y0.6576
X-1.1049 Y0.6918
X-1.1246 Y0.7255
X-1.1452 Y0.7585
X-1.1669 Y0.791
X-1.1894 Y0.8228
X-1.2129 Y0.8539
X-1.2372 Y0.8844
X-1.2625 Y0.9141
X-1.2886 Y0.943
X-1.3156 Y0.9712
X-1.3434 Y0.9986
X-1.3719 Y1.0251
X-1.4013 Y1.0508
X-1.4314 Y1.0756
X-1.4621 Y1.0995
X-1.4936 Y1.1225
X-1.5258 Y1.1446
X-1.5585 Y1.1657
X-1.5919 Y1.1859
X-1.6258 Y1.2051
X-1.6603 Y1.2234
X-1.6953 Y1.2405
X-1.7308 Y1.2567
X-1.7667 Y1.2718
X-1.8031 Y1.2859
X-1.8398 Y1.2989
X-1.877 Y1.3108
X-1.9144 Y1.3216
X-1.9522 Y1.3313
X-1.9902 Y1.34
X-2.0285 Y1.3475
X-2.0669 Y1.354
X-2.1055 Y1.3593
X-2.1443 Y1.3635
X-2.1832 Y1.3666
X-2.2221 Y1.3686
X-2.2611 Y1.3694
X-2.3001 Y1.3691
X-2.339 Y1.3676
X-2.3779 Y1.3651
X-2.4168 Y1.3614
X-2.4555 Y1.3566
X-2.494 Y1.3507
X-2.5324 Y1.3437
X-2.5705 Y1.3356
X-2.6084 Y1.3264
X-2.646 Y1.3161
X-2.6833 Y1.3048
X-2.7203 Y1.2924
X-2.7569 Y1.2789
X-2.7931 Y1.2644
X-2.8288 Y1.2489
X-2.8641 Y1.2323
X-2.8989 Y1.2147
X-2.9332 Y1.1961
X-2.9669 Y1.1766
X-3.0001 Y1.1561
X-3.0327 Y1.1347
X-3.0646 Y1.1123
X-3.0959 Y1.0891
X-3.1265 Y1.0649
X-3.1565 Y1.0399
X-3.1857 Y1.0141
X-3.2141 Y0.9875
X-3.2418 Y0.96
X-3.2687 Y0.9317
X-3.2948 Y0.9027
X-3.32 Y0.873
X-3.3444 Y0.8426
X-3.3679 Y0.8115
X-3.3905 Y0.7797
X-3.4121 Y0.7473
X-3.4329 Y0.7143
X-3.4527 Y0.6807
X-3.4716 Y0.6466
X-3.4895 Y0.612
X-3.5064 Y0.5768
X-3.5223 Y0.5412
X-3.5372 Y0.5052
X-3.5511 Y0.4687
X-3.5639 Y0.4319
X-3.5756 Y0.3947
X-3.5863 Y0.3573
X-3.596 Y0.3195
X-3.6046 Y0.2814
X-3.612 Y0.2432
X-3.6184 Y0.2047
X-3.6238 Y0.1661
X-3.628 Y0.1273
X-3.6311 Y0.0885
X-3.6332 Y0.0495
X-3.6341 Y0.0105
X-3.6339 Y-0.0285
X-3.6327 Y-0.0674
X-3.6303 Y-0.1063
X-3.6268 Y-0.1452
X-3.6222 Y-0.1839
X-3.6166 Y-0.2225
X-3.6098 Y-0.2609
X-3.602 Y-0.2991
X-3.593 Y-0.337
X-3.5831 Y-0.3747
X-3.572 Y-0.4121
X-3.56 Y-0.4492
X-3.5468 Y-0.4859
X-3.5327 Y-0.5222
X-3.5175 Y-0.5582
X-3.5014 Y-0.5936
X-3.4842 Y-0.6286
X-3.466 Y-0.6632
X-3.4469 Y-0.6971
X-3.4268 Y-0.7306
X-3.4058 Y-0.7634
X-3.3839 Y-0.7957
X-3.3611 Y-0.8273
X-3.3374 Y-0.8582
X-3.3128 Y-0.8885
X-3.2874 Y-0.9181
X-3.2612 Y-0.9469
X-3.2342 Y-0.975
X-3.2064 Y-1.0024
X-3.1778 Y-1.0289
X-3.1485 Y-1.0546
X-3.1185 Y-1.0795
X-3.0877 Y-1.1035
X-3.0564 Y-1.1267
X-3.0244 Y-1.1489
X-2.9917 Y-1.1703
X-2.9585 Y-1.1907
X-2.9247 Y-1.2101
X-2.8904 Y-1.2287
X-2.8556 Y-1.2462
X-2.8203 Y-1.2628
X-2.7845 Y-1.2783
X-2.7484 Y-1.2929
X-2.7118 Y-1.3064
X-2.6749 Y-1.3189
X-2.6376 Y-1.3303
X-2.6 Y-1.3407
X-2.5621 Y-1.3501
X-2.524 Y-1.3583
X-2.4857 Y-1.3655
X-2.4472 Y-1.3716
X-2.4085 Y-1.3766
X-2.3697 Y-1.3805
X-2.3309 Y-1.3834
X-2.2919 Y-1.3851
X-2.2529 Y-1.3858
X-2.2139 Y-1.3854
X-2.175 Y-1.3838
X-2.1361 Y-1.3812
X-2.0973 Y-1.3775
X-2.0586 Y-1.3727
X-2.02 Y-1.3668
X-1.9817 Y-1.3598
X-1.9435 Y-1.3518
X-1.9056 Y-1.3427
X-1.8679 Y-1.3325
X-1.8306 Y-1.3214
X-1.7936 Y-1.3091
X-1.7569 Y-1.2959
X-1.7206 Y-1.2816
X-1.6847 Y-1.2664
X-1.6493 Y-1.2501
X-1.6143 Y-1.2329
X-1.5798 Y-1.2147
X-1.5458 Y-1.1956
X-1.5124 Y-1.1755
X-1.4795 Y-1.1545
X-1.4473 Y-1.1327
X-1.4156 Y-1.1099
X-1.3846 Y-1.0863
X-1.3542 Y-1.0618
X-1.3245 Y-1.0366
X-1.2955 Y-1.0105
X-1.2673 Y-0.9836
X-1.2398 Y-0.956
X-1.213 Y-0.9276
X-1.187 Y-0.8985
X-1.1619 Y-0.8687
X-1.1375 Y-0.8383
X-1.1141 Y-0.8072
X-1.0914 Y-0.7754
X-1.0697 Y-0.743
X-1.0488 Y-0.7101
X-1.0288 Y-0.6766
X-1.0098 Y-0.6426
X-0.9917 Y-0.6081
X-0.9745 Y-0.5731
X-0.9583 Y-0.5376
X-0.9431 Y-0.5017
X-0.9288 Y-0.4654
X-0.9155 Y-0.4288
X-0.9033 Y-0.3917
X-0.892 Y-0.3544
X-0.8818 Y-0.3168
X-0.8727 Y-0.2789
X-0.8645 Y-0.2407
X-0.8574 Y-0.2024
X-0.8513 Y-0.1639
X-0.8463 Y-0.1252
X-0.8424 Y-0.0864
X-0.8395 Y-0.0475
X-0.8377 Y-0.0086
X-0.8369 Y0.0304
X-0.8372 Y0.0694
X-0.8386 Y0.1083
X-0.841 Y0.1473
X-0.8445 Y0.1861
X-0.849 Y0.2248
X-0.8547 Y0.2634
X-0.8614 Y0.3018
X-0.8691 Y0.34
X-0.8779 Y0.378
X-0.8877 Y0.4158
X-0.8985 Y0.4532
X-0.9103 Y0.4904
X-0.9232 Y0.5272
X-0.9371 Y0.5636
X-0.9519 Y0.5997
X-0.9678 Y0.6353
X-0.9846 Y0.6705
X-1.0023 Y0.7052
X-1.021 Y0.7394
X-1.0407 Y0.7731
X-1.0612 Y0.8062
X-1.0827 Y0.8387
X-1.1051 Y0.8707
X-1.1283 Y0.902
X-1.1523 Y0.9327
X-1.1772 Y0.9627
X-1.2029 Y0.9921
X-1.2294 Y1.0207
X-1.2566 Y1.0486
X-1.2847 Y1.0757
X-1.3134 Y1.102
X-1.3428 Y1.1276
X-1.373 Y1.1524
X-1.4038 Y1.1763
X-1.4352 Y1.1993
X-1.4673 Y1.2215
X-1.4999 Y1.2428
X-1.5331 Y1.2632
X-1.5669 Y1.2827
X-1.6012 Y1.3013
X-1.636 Y1.3189
X-1.6712 Y1.3356
X-1.7069 Y1.3513
X-1.743 Y1.3661
X-1.7794 Y1.3799
X-1.8163 Y1.3926
X-1.8535 Y1.4044
X-1.8909 Y1.4152
X-1.9287 Y1.4249
X-1.9667 Y1.4336
X-2.0049 Y1.4413
X-2.0433 Y1.4479
X-2.0819 Y1.4535
X-2.1207 Y1.4581
X-2.1595 Y1.4616
X-2.1984 Y1.464
X-2.2374 Y1.4654
X-2.2764 Y1.4658
X-2.3153 Y1.4651
X-2.3543 Y1.4634
X-2.3932 Y1.4606
X-2.432 Y1.4568
X-2.4707 Y1.4519
X-2.5092 Y1.446
X-2.5476 Y1.4391
X-2.5857 Y1.4311
X-2.6237 Y1.4221
X-2.6614 Y1.4121
X-2.6988 Y1.401
X-2.7359 Y1.389
X-2.7726 Y1.376
X-2.809 Y1.362
X-2.845 Y1.3471
X-2.8806 Y1.3312
X-2.9158 Y1.3143
X-2.9505 Y1.2966
X-2.9847 Y1.2779
X-3.0184 Y1.2583
X-3.0516 Y1.2378
X-3.0842 Y1.2164
X-3.1162 Y1.1941
X-3.1476 Y1.171
X-3.1784 Y1.1471
X-3.2085 Y1.1223
X-3.238 Y1.0968
X-3.2668 Y1.0705
X-3.2948 Y1.0434
X-3.3222 Y1.0156
X-3.3488 Y0.9871
X-3.3746 Y0.9579
X-3.3996 Y0.928
X-3.4239 Y0.8975
X-3.4473 Y0.8663
X-3.4699 Y0.8345
X-3.4916 Y0.8022
X-3.5125 Y0.7692
X-3.5324 Y0.7357
X-3.5515 Y0.7017
X-3.5697 Y0.6672
X-3.587 Y0.6323
X-3.6033 Y0.5968
X-3.6187 Y0.561
X-3.6331 Y0.5248
X-3.6466 Y0.4882
X-3.659 Y0.4513
X-3.6706 Y0.414
X-3.6811 Y0.3765
X-3.6906 Y0.3387
X-3.6992 Y0.3006
X-3.7067 Y0.2624
X-3.7132 Y0.2239
X-3.7186 Y0.1853
X-3.7231 Y0.1466
X-3.7265 Y0.1077
X-3.7289 Y0.0688
X-3.7303 Y0.0299
X-3.7306 Y-0.0091
X-3.7299 Y-0.0481
X-3.7282 Y-0.0871
X-3.7255 Y-0.126
X-3.7217 Y-0.1648
X-3.717 Y-0.2035
X-3.7112 Y-0.242
X-3.7044 Y-0.2804
X-3.6965 Y-0.3186
X-3.6877 Y-0.3566
X-3.6778 Y-0.3943
X-3.667 Y-0.4318
X-3.6552 Y-0.4689
X-3.6424 Y-0.5058
X-3.6286 Y-0.5422
X-3.6139 Y-0.5783
X-3.5982 Y-0.6141
X-3.5816 Y-0.6493
X-3.5641 Y-0.6842
X-3.5457 Y-0.7185
X-3.5264 Y-0.7524
X-3.5062 Y-0.7858
X-3.4851 Y-0.8186
X-3.4632 Y-0.8508
X-3.4404 Y-0.8824
X-3.4168 Y-0.9135
X-3.3923 Y-0.9439
X-3.3671 Y-0.9736
X-3.3411 Y-1.0027
X-3.3144 Y-1.031
X-3.2869 Y-1.0587
X-3.2587 Y-1.0856
X-3.2298 Y-1.1118
X-3.2002 Y-1.1372
X-3.17 Y-1.1618
X-3.1391 Y-1.1856
X-3.1077 Y-1.2086
X-3.0756 Y-1.2308
X-3.0429 Y-1.2521
X-3.0097 Y-1.2726
X-2.976 Y-1.2921
X-2.9417 Y-1.3108
X-2.907 Y-1.3285
X-2.8719 Y-1.3453
X-2.8363 Y-1.3612
X-2.8002 Y-1.3762
X-2.7639 Y-1.3902
X-2.7271 Y-1.4032
X-2.69 Y-1.4153
X-2.6527 Y-1.4264
X-2.615 Y-1.4365
X-2.5771 Y-1.4457
X-2.539 Y-1.4538
X-2.5006 Y-1.4609
X-2.4621 Y-1.467
X-2.4235 Y-1.4721
X-2.3847 Y-1.4761
X-2.3458 Y-1.4792
X-2.3069 Y-1.4812
X-2.2679 Y-1.4822
X-2.2289
X-2.1899 Y-1.4811
X-2.151 Y-1.4791
X-2.1121 Y-1.476
X-2.0733 Y-1.4719
X-2.0347 Y-1.4668
X-1.9962 Y-1.4606
X-1.9578 Y-1.4535
X-1.9197 Y-1.4454
X-1.8818 Y-1.4363
X-1.8441 Y-1.4262
X-1.8068 Y-1.4151
X-1.7697 Y-1.403
X-1.7329 Y-1.39
X-1.6965 Y-1.3761
X-1.6605 Y-1.3611
X-1.6249 Y-1.3453
X-1.5897 Y-1.3285
X-1.5549 Y-1.3109
X-1.5206 Y-1.2923
X-1.4868 Y-1.2729
X-1.4535 Y-1.2526
X-1.4207 Y-1.2315
X-1.3885 Y-1.2095
X-1.3569 Y-1.1867
X-1.3259 Y-1.1631
X-1.2955 Y-1.1387
X-1.2657 Y-1.1135
X-1.2366 Y-1.0876
X-1.2082 Y-1.0609
X-1.1804 Y-1.0335
X-1.1534 Y-1.0054
X-1.1271 Y-0.9766
X-1.1015 Y-0.9472
X-1.0767 Y-0.9171
X-1.0527 Y-0.8864
X-1.0295 Y-0.8551
X-1.007 Y-0.8232
X-0.9854 Y-0.7907
X-0.9646 Y-0.7577
X-0.9447 Y-0.7242
X-0.9256 Y-0.6902
X-0.9075 Y-0.6557
X-0.8902 Y-0.6208
X-0.8738 Y-0.5854
X-0.8583 Y-0.5496
X-0.8437 Y-0.5134
X-0.8301 Y-0.4769
X-0.8174 Y-0.44
X-0.8056 Y-0.4029
X-0.7948 Y-0.3654
X-0.785 Y-0.3277
X-0.7761 Y-0.2897
X-0.7682 Y-0.2515
X-0.7612 Y-0.2132
X-0.7552 Y-0.1746
X-0.7503 Y-0.136
X-0.7463 Y-0.0972
X-0.7433 Y-0.0583
X-0.7414 Y-0.0193
X-0.7404 Y0.0196
Y0.0586
X-0.7414 Y0.0976
X-0.7434 Y0.1365
X-0.7464 Y0.1754
X-0.7504 Y0.2142
X-0.7554 Y0.2529
X-0.7614 Y0.2914
X-0.7684 Y0.3298
X-0.7763 Y0.3679
X-0.7852 Y0.4059
X-0.7951 Y0.4436
X-0.8059 Y0.4811
X-0.8177 Y0.5182
X-0.8305 Y0.5551
X-0.8442 Y0.5916
X-0.8589 Y0.6277
X-0.8744 Y0.6635
X-0.8909 Y0.6988
X-0.9083 Y0.7337
X-0.9265 Y0.7681
X-0.9457 Y0.8021
X-0.9657 Y0.8356
X-0.9865 Y0.8685
X-1.0082 Y0.9009
X-1.0307 Y0.9328
X-1.054 Y0.964
X-1.0781 Y0.9947
X-1.103 Y1.0247
X-1.1287 Y1.0541
X-1.1551 Y1.0828
X-1.1822 Y1.1108
X-1.21 Y1.1381
X-1.2385 Y1.1647
X-1.2677 Y1.1905
X-1.2976 Y1.2156
X-1.3281 Y1.2399
X-1.3591 Y1.2635
X-1.3908 Y1.2862
X-1.4231 Y1.3081
X-1.4558 Y1.3292
X-1.4892 Y1.3495
X-1.523 Y1.3689
X-1.5573 Y1.3874
X-1.592 Y1.4051
X-1.6273 Y1.4218
X-1.6629 Y1.4377
X-1.6989 Y1.4526
X-1.7353 Y1.4666
X-1.772 Y1.4797
X-1.8091 Y1.4918
X-1.8464 Y1.503
X-1.884 Y1.5133
X-1.9219 Y1.5226
X-1.96 Y1.5309
X-1.9983 Y1.5383
X-2.0367 Y1.5447
X-2.0754 Y1.5501
X-2.1141 Y1.5546
X-2.1529 Y1.558
X-2.1918 Y1.5605
X-2.2308 Y1.562
X-2.2698 Y1.5625
X-2.3088 Y1.562
X-2.3477 Y1.5605
X-2.3867 Y1.5581
X-2.4255 Y1.5547
X-2.4642 Y1.5502
X-2.5028 Y1.5449
X-2.5413 Y1.5385
X-2.5796 Y1.5312
X-2.6177 Y1.5229
X-2.6556 Y1.5137
X-2.6932 Y1.5035
X-2.7306 Y1.4924
X-2.7677 Y1.4804
X-2.8045 Y1.4674
X-2.8409 Y1.4535
X-2.877 Y1.4386
X-2.9126 Y1.4229
X-2.9479 Y1.4063
X-2.9828 Y1.3888
X-3.0172 Y1.3704
X-3.0511 Y1.3512
X-3.0845 Y1.3312
X-3.1174 Y1.3103
X-3.1498 Y1.2886
X-3.1817 Y1.2661
X-3.2129 Y1.2428
X-3.2436 Y1.2187
X-3.2737 Y1.1939
X-3.3031 Y1.1683
X-3.3319 Y1.142
X-3.36 Y1.115
X-3.3875 Y1.0873
X-3.4142 Y1.0589
X-3.4402 Y1.0299
X-3.4655 Y1.0002
X-3.49 Y0.9699
X-3.5138 Y0.939
X-3.5368 Y0.9075
X-3.559 Y0.8755
X-3.5804 Y0.8429
X-3.601 Y0.8097
X-3.6207 Y0.7761
X-3.6397 Y0.742
X-3.6577 Y0.7075
X-3.6749 Y0.6725
X-3.6913 Y0.6371
X-3.7067 Y0.6013
X-3.7212 Y0.5651
X-3.7349 Y0.5286
X-3.7476 Y0.4917
X-3.7594 Y0.4546
X-3.7703 Y0.4171
X-3.7802 Y0.3794
X-3.7892 Y0.3415
X-3.7973 Y0.3033
X-3.8044 Y0.265
X-3.8106 Y0.2265
X-3.8158 Y0.1879
X-3.82 Y0.1491
X-3.8233 Y0.1102
X-3.8257 Y0.0713
X-3.827 Y0.0324
X-3.8274 Y-0.0066
X-3.8268 Y-0.0456
X-3.8253 Y-0.0846
X-3.8227 Y-0.1235
X-3.8193 Y-0.1623
X-3.8148 Y-0.2011
X-3.8094 Y-0.2397
X-3.8031 Y-0.2781
X-3.7958 Y-0.3164
X-3.7875 Y-0.3546
X-3.7784 Y-0.3924
X-3.7682 Y-0.4301
X-3.7572 Y-0.4675
X-3.7452 Y-0.5046
X-3.7324 Y-0.5414
X-3.7186 Y-0.5779
X-3.7039 Y-0.614
X-3.6883 Y-0.6497
X-3.6718 Y-0.6851
X-3.6545 Y-0.72
X-3.6363 Y-0.7545
X-3.6173 Y-0.7885
X-3.5974 Y-0.8221
X-3.5767 Y-0.8551
X-3.5552 Y-0.8876
X-3.5329 Y-0.9196
X-3.5098 Y-0.9511
X-3.486 Y-0.9819
X-3.4614 Y-1.0121
X-3.436 Y-1.0418
X-3.41 Y-1.0708
X-3.3832 Y-1.0991
X-3.3557 Y-1.1268
X-3.3275 Y-1.1538
X-3.2987 Y-1.18
X-3.2693 Y-1.2056
X-3.2392 Y-1.2304
X-3.2085 Y-1.2544
X-3.1773 Y-1.2777
X-3.1454 Y-1.3003
X-3.113 Y-1.322
X-3.0801 Y-1.3429
X-3.0467 Y-1.363
X-3.0128 Y-1.3823
X-2.9785 Y-1.4007
X-2.9437 Y-1.4183
X-2.9084 Y-1.435
X-2.8728 Y-1.4508
X-2.8368 Y-1.4658
X-2.8004 Y-1.4798
X-2.7637 Y-1.493
X-2.7267 Y-1.5052
X-2.6894 Y-1.5165
X-2.6518 Y-1.5269
X-2.614 Y-1.5364
X-2.5759 Y-1.5449
X-2.5377 Y-1.5525
X-2.4993 Y-1.5591
X-2.4607 Y-1.5648
X-2.422 Y-1.5696
X-2.3832 Y-1.5734
X-2.3443 Y-1.5762
X-2.3054 Y-1.5781
X-2.2664 Y-1.579
X-2.2274 Y-1.5789
X-2.1884 Y-1.5779
X-2.1495 Y-1.5759
X-2.1106 Y-1.573
X-2.0718 Y-1.5691
X-2.0331 Y-1.5643
X-1.9946 Y-1.5585
X-1.9561 Y-1.5517
X-1.9179 Y-1.5441
X-1.8799 Y-1.5355
X-1.8421 Y-1.5259
X-1.8045 Y-1.5154
X-1.7672 Y-1.5041
X-1.7302 Y-1.4918
X-1.6935 Y-1.4786
X-1.6572 Y-1.4646
X-1.6211 Y-1.4496
X-1.5855 Y-1.4338
X-1.5503 Y-1.4171
X-1.5155 Y-1.3995
X-1.4811 Y-1.3811
X-1.4472 Y-1.3619
X-1.4137 Y-1.3418
X-1.3808 Y-1.321
X-1.3483 Y-1.2994
X-1.3164 Y-1.277
X-1.2851 Y-1.2538
X-1.2543 Y-1.2298
X-1.2241 Y-1.2052
X-1.1945 Y-1.1798
X-1.1655 Y-1.1537
X-1.1372 Y-1.1269
X-1.1095 Y-1.0995
X-1.0825 Y-1.0714
X-1.0562 Y-1.0426
X-1.0305 Y-1.0132
X-1.0056 Y-0.9832
X-0.9815 Y-0.9526
X-0.958 Y-0.9214
X-0.9353 Y-0.8897
X-0.9134 Y-0.8575
X-0.8923 Y-0.8247
X-0.8719 Y-0.7915
X-0.8524 Y-0.7577
X-0.8337 Y-0.7235
X-0.8158 Y-0.6889
X-0.7987 Y-0.6538
X-0.7825 Y-0.6184
X-0.7671 Y-0.5825
X-0.7526 Y-0.5463
X-0.739 Y-0.5098
X-0.7262 Y-0.473
X-0.7144 Y-0.4358
X-0.7035 Y-0.3984
X-0.6934 Y-0.3607
X-0.6843 Y-0.3228
X-0.676 Y-0.2847
X-0.6687 Y-0.2464
X-0.6623 Y-0.2079
X-0.6569 Y-0.1693
X-0.6523 Y-0.1306
X-0.6487 Y-0.0918
X-0.646 Y-0.0529
X-0.645 Y-0.0299
Y-0.0282
Y0.0443
X-0.6469 Y0.0832
X-0.6476 Y0.1222
X-0.6494 Y0.1612
X-0.6524 Y0.2
X-0.6565 Y0.2388
X-0.6616 Y0.2775
X-0.6677 Y0.316
X-0.6747 Y0.3543
X-0.6827 Y0.3925
X-0.6916 Y0.4305
X-0.7015 Y0.4682
X-0.7122 Y0.5057
X-0.7239 Y0.5429
X-0.7365 Y0.5798
X-0.75 Y0.6163
X-0.7644 Y0.6526
X-0.7796 Y0.6885
X-0.7957 Y0.724
X-0.8127 Y0.7591
X-0.8305 Y0.7938
X-0.8491 Y0.8281
X-0.8685 Y0.8619
X-0.8887 Y0.8952
X-0.9098 Y0.928
X-0.9316 Y0.9604
X-0.9541 Y0.9922
X-0.9775 Y1.0234
X-1.0016 Y1.054
X-1.0264 Y1.0841
X-1.052 Y1.1136
X-1.0782 Y1.1424
X-1.1052 Y1.1706
X-1.1328 Y1.1981
X-1.1552 Y1.2193
X-1.1586 Y1.2223
X-1.1623 Y1.2251
X-1.1662 Y1.2275
X-1.7012 Y1.5364
X-1.7359 Y1.5542
X-1.7711 Y1.5711
X-1.8073 Y1.5856
X-1.8441 Y1.5983
X-1.8815 Y1.6094
X-1.9193 Y1.6191
X-1.9573 Y1.6277
X-1.9956 Y1.6352
X-2.034 Y1.6416
X-2.0726 Y1.6469
X-2.1114 Y1.6513
X-2.1502 Y1.6548
X-2.1891 Y1.6572
X-2.2281 Y1.6588
X-2.2671 Y1.6593
X-2.3061 Y1.6589
X-2.345 Y1.6576
X-2.384 Y1.6554
X-2.4228 Y1.6522
X-2.4616 Y1.6481
X-2.5003 Y1.6431
X-2.5388 Y1.6372
X-2.5772 Y1.6304
X-2.6154 Y1.6226
X-2.6534 Y1.614
X-2.6651 Y1.6111
X-2.6703 Y1.6095
X-2.6752 Y1.6075
X-2.68 Y1.605
X-3.367 Y1.2084
X-3.3997 Y1.1873
X-3.4313 Y1.1643
X-3.461 Y1.1392
X-3.4894 Y1.1124
X-3.5165 Y1.0843
X-3.5425 Y1.0553
X-3.5676 Y1.0254
X-3.5917 Y0.9948
X-3.615 Y0.9635
X-3.6374 Y0.9316
X-3.659 Y0.8992
X-3.6798 Y0.8662
X-3.6998 Y0.8327
X-3.719 Y0.7988
X-3.7374 Y0.7644
X-3.7549 Y0.7296
X-3.7716 Y0.6944
X-3.7875 Y0.6587
X-3.8026 Y0.6228
X-3.8168 Y0.5865
X-3.8301 Y0.5498
X-3.8426 Y0.5129
X-3.8523 Y0.4817
X-3.8538 Y0.476
X-3.8547 Y0.4702
X-3.855 Y0.4643
Y-0.3721
X-3.8531 Y-0.4111
X-3.8495 Y-0.4499
X-3.8428 Y-0.4883
X-3.8338 Y-0.5262
X-3.823 Y-0.5637
X-3.8107 Y-0.6007
X-3.7971 Y-0.6373
X-3.7824 Y-0.6734
X-3.7667 Y-0.7091
X-3.7501 Y-0.7443
X-3.7325 Y-0.7791
X-3.7141 Y-0.8135
X-3.6949 Y-0.8474
X-3.6749 Y-0.8809
X-3.654 Y-0.9138
X-3.6325 Y-0.9463
X-3.6101 Y-0.9783
X-3.587 Y-1.0097
X-3.5632 Y-1.0405
X-3.5386 Y-1.0708
X-3.5134 Y-1.1006
X-3.4875 Y-1.1297
X-3.4748 Y-1.1432
X-3.4707 Y-1.1472
X-3.4662 Y-1.1508
X-3.4613 Y-1.1539
X-2.7285 Y-1.577
X-2.6938 Y-1.5948
X-2.6588 Y-1.611
X-2.6223 Y-1.6245
X-2.5849 Y-1.6357
X-2.5471 Y-1.645
X-2.5089 Y-1.6529
X-2.4704 Y-1.6594
X-2.4318 Y-1.6647
X-2.393 Y-1.669
X-2.3542 Y-1.6721
X-2.3153 Y-1.6743
X-2.2763 Y-1.6755
X-2.2373 Y-1.6758
X-2.1983 Y-1.6751
X-2.1593 Y-1.6735
X-2.1204 Y-1.671
X-2.0816 Y-1.6676
X-2.0429 Y-1.6632
X-2.0042 Y-1.658
X-1.9657 Y-1.6519
X-1.9273 Y-1.6449
X-1.8892 Y-1.637
X-1.8747 Y-1.6337
X-1.8691 Y-1.6321
X-1.8638 Y-1.63
X-1.8586 Y-1.6273
X-1.0987 Y-1.1886
X-1.0659 Y-1.1674
X-1.0347 Y-1.1441
X-1.0052 Y-1.1186
X-0.9773 Y-1.0914
X-0.9506 Y-1.063
X-0.925 Y-1.0336
X-0.9003 Y-1.0034
X-0.8766 Y-0.9724
X-0.8537 Y-0.9409
X-0.8316 Y-0.9087
X-0.8103 Y-0.8761
X-0.7899 Y-0.8429
X-0.7702 Y-0.8092
X-0.7513 Y-0.7751
X-0.7333 Y-0.7405
X-0.716 Y-0.7056
X-0.6995 Y-0.6703
X-0.6838 Y-0.6346
X-0.6689 Y-0.5985
X-0.6549 Y-0.5621
X-0.6484 Y-0.5442
X-0.6465 Y-0.5378
X-0.6454 Y-0.5312
X-0.645 Y-0.5245
Y-0.0282
G3 X-0.6482 Y-0.0168 I-0.025 J-0.0009 F50
G1 X-0.654 Y-0.0064
X-0.6555 Y-0.0032
X-0.6564 Y0.0003
G2 X-0.6537 Y0.0146 I0.0208 J0.0036 F70
G1 X-0.6535 Y0.0149
G3 X-0.645 Y0.0443 I-0.0537 J0.0316 F50
G1 Y0.505 F70
X-0.6469 Y0.544
X-0.651 Y0.5787
X-0.6586 Y0.617
X-0.6688 Y0.6546
X-0.681 Y0.6916
X-0.6948 Y0.7281
X-0.7099 Y0.764
X-0.7261 Y0.7995
X-0.7434 Y0.8344
X-0.7616 Y0.8689
X-0.7807 Y0.9029
X-0.8006 Y0.9365
X-0.8213 Y0.9695
X-0.8427 Y1.002
X-0.865 Y1.0341
X-0.8823 Y1.0579
X-0.8875 Y1.0641
X-0.8935 Y1.0695
X-0.9003 Y1.074
X-1.1662 Y1.2275
G3 X-1.1949 Y1.2238 I-0.0117 J-0.0221 F50
X-1.1981 Y1.1908 I0.017 J-0.0183 F70
G1 X-0.6902 Y0.4912
G3 X-0.6626 Y0.482 I0.0202 J0.0147
X-0.645 Y0.505 I-0.0074 J0.0239 F50
G1 Y0.6999 F70
X-0.6451 Y0.7088
X-0.6468 Y0.7354
X-0.6475 Y0.7442
X-0.6506 Y0.7797
X-0.6512 Y0.7841
X-0.6524 Y0.7885
X-0.6619 Y0.824
X-0.6643 Y0.8328
X-0.6705 Y0.8505
X-0.6787 Y0.8683
X-0.6911 Y0.8948
X-0.6934 Y0.8993
X-0.6964 Y0.9037
X-0.7088 Y0.9215
X-0.7152 Y0.9303
X-0.7286 Y0.948
X-0.7354 Y0.9565
X-0.7624 Y0.9834
X-0.7709 Y0.9916
X-0.7974 Y1.0109
X-0.824 Y1.0295
X-0.8329 Y1.0351
X-0.9003 Y1.074
G0 Z0.2
X-1.1537 Y-1.1956
Z-0.075
G1 Z-0.1 F50
X-1.1534 Z-0.1039
X-1.1525 Z-0.1077
X-1.151 Z-0.1113
X-1.149 Z-0.1147
X-1.1464 Y-1.1957 Z-0.1177
X-1.1434 Z-0.1202
X-1.1401 Z-0.1223
X-1.1365 Y-1.1958 Z-0.1238
X-1.1327 Z-0.1247
X-1.1287 Y-1.1959 Z-0.125
G3 X-1.0987 Y-1.1886 I0.0008 J0.0623
G1 X-0.8683 Y-1.0556 F70
X-0.8456 Y-1.0409
X-0.8241 Y-1.0244
X-0.7987 Y-1.0015
X-0.7719 Y-0.9731
X-0.7473 Y-0.9429
X-0.7243 Y-0.9115
X-0.7026 Y-0.879
X-0.6822 Y-0.8458
X-0.6628 Y-0.812
X-0.6576 Y-0.8022
X-0.6557 Y-0.7982
X-0.654 Y-0.794
X-0.6527 Y-0.7898
G3 X-0.6638 Y-0.763 I-0.0244 J0.0056 F50
G1 X-0.6671 Y-0.7609 Z-0.1247
X-0.6703 Y-0.7589 Z-0.1238
X-0.6734 Y-0.7569 Z-0.1223
X-0.6762 Y-0.7552 Z-0.1202
X-0.6787 Y-0.7536 Z-0.1177
X-0.6809 Y-0.7522 Z-0.1147
X-0.6826 Y-0.7511 Z-0.1113
X-0.6839 Y-0.7503 Z-0.1077
X-0.6847 Y-0.7498 Z-0.1039
X-0.6849 Y-0.7497 Z-0.1
G0 Z0.2
X-0.9234 Y-1.0626
Z-0.075
G1 Z-0.1 F50
X-0.9231 Z-0.1039
X-0.9221 Z-0.1077
X-0.9206 Z-0.1113
X-0.9186 Z-0.1147
X-0.9161 Z-0.1177
X-0.9131 Y-1.0627 Z-0.1202
X-0.9097 Z-0.1223
X-0.9061 Y-1.0628 Z-0.1238
X-0.9023 Z-0.1247
X-0.8984 Y-1.0629 Z-0.125
G3 X-0.8683 Y-1.0556 I0.0008 J0.0623
G1 X-0.8329 Y-1.0351 F70
X-0.824 Y-1.0295
X-0.7974 Y-1.0109
X-0.7709 Y-0.9916
X-0.762 Y-0.983
X-0.7354 Y-0.9565
X-0.7286 Y-0.948
X-0.7152 Y-0.9303
X-0.7088 Y-0.9214
X-0.6964 Y-0.9037
X-0.6934 Y-0.8993
X-0.6911 Y-0.8948
X-0.6734 Y-0.8568
X-0.6705 Y-0.8505
X-0.6643 Y-0.8328
X-0.6619 Y-0.824
X-0.6524 Y-0.7885
X-0.6512 Y-0.7841
X-0.6506 Y-0.7797
X-0.6475 Y-0.7442
X-0.6468 Y-0.7354
X-0.6451 Y-0.7088
X-0.645 Y-0.6999
Y-0.5245
G3 X-0.6626 Y-0.5014 I-0.025 J-0.0009 F50
G1 X-0.6664 Y-0.5003 Z-0.1247
X-0.67 Y-0.4992 Z-0.1238
X-0.6735 Y-0.4981 Z-0.1223
X-0.6767 Y-0.4971 Z-0.1202
X-0.6795 Y-0.4962 Z-0.1177
X-0.6819 Y-0.4955 Z-0.1147
X-0.6839 Y-0.4949 Z-0.1113
X-0.6853 Y-0.4944 Z-0.1077
X-0.6862 Y-0.4942 Z-0.1039
X-0.6865 Y-0.4941 Z-0.1
G0 Z0.2
X-1.6676 Y1.4923
Z-0.075
G1 Z-0.1 F50
X-1.6678 Y1.4925 Z-0.1039
X-1.6682 Y1.4933 Z-0.1077
X-1.669 Y1.4946 Z-0.1113
X-1.67 Y1.4964 Z-0.1147
X-1.6712 Y1.4986 Z-0.1177
X-1.6727 Y1.5012 Z-0.1202
X-1.6743 Y1.5042 Z-0.1223
X-1.6761 Y1.5073 Z-0.1238
X-1.678 Y1.5107 Z-0.1247
X-1.6799 Y1.5141 Z-0.125
G3 X-1.7012 Y1.5364 I-0.0544 J-0.0305
G1 X-1.967 Y1.6899 F70
X-1.9983 Y1.706
X-2.0259 Y1.7174
X-2.062 Y1.7291
X-2.0999 Y1.7381
X-2.1383 Y1.7446
X-2.177 Y1.7493
X-2.2159 Y1.7525
X-2.2549 Y1.7542
X-2.2939 Y1.7548
X-2.3328 Y1.7543
X-2.3718 Y1.7527
X-2.4107 Y1.7502
X-2.4182 Y1.7495
X-2.4257 Y1.7484
X-2.433 Y1.7463
X-2.4399 Y1.7432
X-2.4455 Y1.7403
X-2.4523 Y1.7365
X-2.68 Y1.605
G3 X-2.6912 Y1.5782 I0.0132 J-0.0212 F50
X-2.6637 Y1.559 I0.0244 J0.0056 F70
G1 X-1.9772 Y1.6439
G3 X-1.9559 Y1.6631 I-0.0031 J0.0248
X-1.967 Y1.6899 I-0.0244 J0.0056 F50
G1 X-2.0379 Y1.7308 F70
X-2.0645 Y1.746
X-2.0733 Y1.7506
X-2.1002 Y1.7631
X-2.1265 Y1.7749
X-2.1354 Y1.7782
X-2.1797 Y1.7901
X-2.1885 Y1.7923
X-2.1974 Y1.7932
X-2.2417 Y1.7971
X-2.2506 Y1.7977
X-2.2594 Y1.797
X-2.3037 Y1.7931
X-2.3126 Y1.7921
X-2.3218 Y1.7897
X-2.348 Y1.7827
X-2.3547 Y1.7808
X-2.3835 Y1.7705
X-2.3923 Y1.7666
X-2.41 Y1.7583
X-2.4189 Y1.7541
X-2.4399 Y1.7432
G3 X-2.4522 Y1.717 I0.0123 J-0.0218 F50
G1 X-2.4515 Y1.7131 Z-0.1247
X-2.4509 Y1.7094 Z-0.1238
X-2.4502 Y1.7058 Z-0.1223
X-2.4496 Y1.7025 Z-0.1202
X-2.4491 Y1.6996 Z-0.1177
X-2.4486 Y1.6971 Z-0.1147
X-2.4483 Y1.6951 Z-0.1113
X-2.448 Y1.6936 Z-0.1077
X-2.4478 Y1.6927 Z-0.1039
Y1.6924 Z-0.1
G0 Z0.2
X-3.3119 Y1.2154
Z-0.075
G1 Z-0.1 F50
X-3.3122 Z-0.1039
X-3.3131 Z-0.1077
X-3.3146 Z-0.1113
X-3.3167 Z-0.1147
X-3.3192 Y1.2155 Z-0.1177
X-3.3222 Z-0.1202
X-3.3256 Y1.2156 Z-0.1223
X-3.3292 Z-0.1238
X-3.333 Z-0.1247
X-3.3369 Y1.2157 Z-0.125
G3 X-3.367 Y1.2084 I-0.0008 J-0.0623
G1 X-3.6032 Y1.072 F70
X-3.6294 Y1.0551
X-3.6511 Y1.0385
X-3.6767 Y1.0153
X-3.7035 Y0.987
X-3.7282 Y0.9568
X-3.7512 Y0.9254
X-3.7729 Y0.8929
X-3.7934 Y0.8598
X-3.8128 Y0.8259
X-3.8312 Y0.7916
X-3.8469 Y0.7604
X-3.8498 Y0.7535
X-3.8518 Y0.7463
X-3.8529 Y0.7389
X-3.8532 Y0.7354
X-3.8549 Y0.7088
X-3.855 Y0.6999
Y0.4643
G3 X-3.8374 Y0.4413 I0.025 J0.0009 F50
X-3.8069 Y0.4557 I0.0074 J0.0239 F70
G1 X-3.5683 Y1.0405
G3 X-3.5744 Y1.0683 I-0.0231 J0.0094
X-3.6032 Y1.072 I-0.017 J-0.0183 F50
G1 X-3.6505 Y1.0447 F70
X-3.6594 Y1.0395
X-3.6859 Y1.0225
X-3.6948 Y1.0163
X-3.7214 Y0.9977
X-3.7287 Y0.9923
X-3.7303 Y0.9908
X-3.7568 Y0.9642
X-3.7638 Y0.9569
X-3.7834 Y0.9325
X-3.785 Y0.9303
X-3.7923 Y0.9196
X-3.803 Y0.9037
X-3.8088 Y0.8948
X-3.813 Y0.886
X-3.8295 Y0.8505
X-3.8334 Y0.8417
X-3.8405 Y0.8151
X-3.8454 Y0.7968
X-3.8473 Y0.7885
X-3.85 Y0.7708
X-3.8509 Y0.7619
X-3.8527 Y0.7413
X-3.8529 Y0.7389
G3 X-3.8372 Y0.7145 I0.025 J-0.0011 F50
G1 X-3.8336 Y0.7131 Z-0.1247
X-3.83 Y0.7116 Z-0.1238
X-3.8267 Y0.7103 Z-0.1223
X-3.8236 Y0.7091 Z-0.1202
X-3.8208 Y0.708 Z-0.1177
X-3.8184 Y0.707 Z-0.1147
X-3.8165 Y0.7063 Z-0.1113
X-3.8151 Y0.7057 Z-0.1077
X-3.8143 Y0.7054 Z-0.1039
X-3.814 Y0.7052 Z-0.1
G0 Z0.2
X-3.8335 Y-0.321
Z-0.075
G1 Z-0.1 F50
X-3.8337 Y-0.3212 Z-0.1039
X-3.8341 Y-0.322 Z-0.1077
X-3.8349 Y-0.3233 Z-0.1113
X-3.836 Y-0.3251 Z-0.1147
X-3.8373 Y-0.3272 Z-0.1177
X-3.8388 Y-0.3298 Z-0.1202
X-3.8405 Y-0.3327 Z-0.1223
X-3.8423 Y-0.3358 Z-0.1238
X-3.8443 Y-0.3391 Z-0.1247
X-3.8463 Y-0.3424 Z-0.125
G3 X-3.855 Y-0.3721 I0.0536 J-0.0318
G1 Y-0.6468 F70
X-3.8536 Y-0.6743
X-3.8501 Y-0.7008
X-3.8431 Y-0.7339
X-3.8319 Y-0.7713
X-3.818 Y-0.8077
X-3.8022 Y-0.8434
X-3.7849 Y-0.8783
X-3.7662 Y-0.9126
X-3.7465 Y-0.9462
X-3.7258 Y-0.9792
X-3.7129 Y-0.9987
X-3.7085 Y-1.0045
X-3.7035 Y-1.0097
X-3.6978 Y-1.0143
X-3.6912 Y-1.0189
X-3.6859 Y-1.0225
X-3.6594 Y-1.0395
X-3.6492 Y-1.0455
X-3.4613 Y-1.1539
G3 X-3.4326 Y-1.1502 I0.0117 J0.0221 F50
X-3.4299 Y-1.1164 I-0.017 J0.0183 F70
G1 X-3.8104 Y-0.6322
G3 X-3.8374 Y-0.6237 I-0.0197 J-0.0154
X-3.855 Y-0.6468 I0.0074 J-0.0239 F50
G1 Y-0.6999 F70
X-3.8549 Y-0.7088
X-3.8532 Y-0.7354
X-3.8525 Y-0.7442
X-3.8509 Y-0.7619
X-3.85 Y-0.7708
X-3.8473 Y-0.7885
X-3.8454 Y-0.7968
X-3.8358 Y-0.8328
X-3.8334 Y-0.8417
X-3.8295 Y-0.8505
X-3.81 Y-0.8924
X-3.8088 Y-0.8948
X-3.803 Y-0.9037
X-3.7911 Y-0.9214
X-3.785 Y-0.9303
X-3.7834 Y-0.9325
X-3.7638 Y-0.9569
X-3.7568 Y-0.9642
X-3.7303 Y-0.9908
X-3.7287 Y-0.9923
X-3.7214 Y-0.9977
X-3.6978 Y-1.0143
G3 X-3.6688 Y-1.013 I0.0136 J0.021 F50
G1 X-3.6657 Y-1.0106 Z-0.1247
X-3.6627 Y-1.0083 Z-0.1238
X-3.6598 Y-1.0061 Z-0.1223
X-3.6572 Y-1.004 Z-0.1202
X-3.6549 Y-1.0022 Z-0.1177
X-3.6528 Y-1.0006 Z-0.1147
X-3.6512 Y-0.9994 Z-0.1113
X-3.65 Y-0.9984 Z-0.1077
X-3.6493 Y-0.9979 Z-0.1039
X-3.6491 Y-0.9977 Z-0.1
G0 Z0.2
X-2.762 Y-1.5329
Z-0.075
G1 Z-0.1 F50
X-2.7619 Y-1.5331 Z-0.1039
X-2.7614 Y-1.5339 Z-0.1077
X-2.7607 Y-1.5352 Z-0.1113
X-2.7597 Y-1.537 Z-0.1147
X-2.7585 Y-1.5392 Z-0.1177
X-2.757 Y-1.5418 Z-0.1202
X-2.7554 Y-1.5448 Z-0.1223
X-2.7536 Y-1.5479 Z-0.1238
X-2.7517 Y-1.5513 Z-0.1247
X-2.7498 Y-1.5547 Z-0.125
G3 X-2.7285 Y-1.577 I0.0544 J0.0305
G1 X-2.4898 Y-1.7149 F70
X-2.4664 Y-1.7268
X-2.4418 Y-1.737
X-2.4097 Y-1.7474
X-2.3718 Y-1.7564
X-2.3333 Y-1.7626
X-2.2945 Y-1.7668
X-2.2556 Y-1.7691
X-2.2166 Y-1.7701
X-2.1776 Y-1.7698
X-2.1387 Y-1.7684
X-2.1181 Y-1.7671
X-2.1109 Y-1.7662
X-2.1039 Y-1.7644
X-2.0972 Y-1.7617
X-2.0733 Y-1.7506
X-2.0645 Y-1.746
X-2.0379 Y-1.7308
X-1.8586 Y-1.6273
G3 X-1.8475 Y-1.6006 I-0.0132 J0.0212 F50
X-1.8755 Y-1.5814 I-0.0244 J-0.0056 F70
G1 X-2.4801 Y-1.6689
G3 X-2.5009 Y-1.6881 I0.0036 J-0.0247
X-2.4898 Y-1.7149 I0.0244 J-0.0056 F50
G1 X-2.4523 Y-1.7365 F70
X-2.4455 Y-1.7403
X-2.4186 Y-1.7542
X-2.41 Y-1.7583
X-2.3923 Y-1.7666
X-2.3835 Y-1.7705
X-2.3547 Y-1.7808
X-2.348 Y-1.7827
X-2.3214 Y-1.7898
X-2.3126 Y-1.7921
X-2.3037 Y-1.7931
X-2.2594 Y-1.797
X-2.2506 Y-1.7977
X-2.2417 Y-1.7971
X-2.1974 Y-1.7932
X-2.1885 Y-1.7923
X-2.1782 Y-1.7897
X-2.1354 Y-1.7782
X-2.1265 Y-1.7749
X-2.0999 Y-1.763
X-2.0972 Y-1.7617
X-2.0946 Y-1.7602 F50
X-2.0923 Y-1.7584
X-2.0904 Y-1.7561 Z-0.1248
X-2.0885 Y-1.7538 Z-0.1243
X-2.0867 Y-1.7516 Z-0.1234
X-2.0857 Y-1.7486 Z-0.1219
X-2.0847 Y-1.7458 Z-0.12
X-2.0838 Y-1.7433 Z-0.1177
X-2.0837 Y-1.7412 Z-0.1153
X-2.0835 Y-1.7394 Z-0.1126
X-2.0836 Y-1.738 Z-0.1097
X-2.0837 Y-1.7369 Z-0.1066
Y-1.7362 Z-0.1033
X-2.0838 Y-1.736 Z-0.1
G0 Z0.2
X2.1745 Y0.0916
Z0.1001
G3 X2.3255 Y-0.0916 Z0.0871 I0.0755 J-0.0916 F25
X2.1745 Y0.0916 Z0.0741 I-0.0755 J0.0916
X2.3255 Y-0.0916 Z0.061 I0.0755 J-0.0916
X2.1745 Y0.0916 Z0.048 I-0.0755 J0.0916
X2.3255 Y-0.0916 Z0.035 I0.0755 J-0.0916
X2.1745 Y0.0916 Z0.022 I-0.0755 J0.0916
X2.3255 Y-0.0916 Z0.0089 I0.0755 J-0.0916
X2.1745 Y0.0916 Z-0.0041 I-0.0755 J0.0916
X2.3255 Y-0.0916 Z-0.0171 I0.0755 J-0.0916
X2.1745 Y0.0916 Z-0.0302 I-0.0755 J0.0916
X2.3255 Y-0.0916 Z-0.0432 I0.0755 J-0.0916
X2.1745 Y0.0916 Z-0.0562 I-0.0755 J0.0916
X2.3255 Y-0.0916 Z-0.0692 I0.0755 J-0.0916
X2.1745 Y0.0916 Z-0.0823 I-0.0755 J0.0916
X2.3255 Y-0.0916 Z-0.0953 I0.0755 J-0.0916
X2.1745 Y0.0916 Z-0.1083 I-0.0755 J0.0916
X2.3255 Y-0.0916 Z-0.1213 I0.0755 J-0.0916
X2.3687 Y0 Z-0.125 I-0.0755 J0.0916
X2.1313 I-0.1187 J0
X2.3687 I0.1187 J0
G1 X2.3689 Y0.0097 F70
X2.376 Y0.0481
X2.3778 Y0.0538
X2.3789 Y0.0597
X2.3795 Y0.0657
Y0.0717
X2.379 Y0.0782
X2.3779 Y0.0851
X2.3762 Y0.0924
X2.3737 Y0.0999
X2.3705 Y0.1076
X2.3665 Y0.1154
X2.3616 Y0.1233
X2.3558 Y0.131
X2.3492 Y0.1386
X2.3417 Y0.146
X2.3333 Y0.1529
X2.3241 Y0.1594
X2.314 Y0.1653
X2.3033 Y0.1705
X2.2919 Y0.1749
X2.2798 Y0.1785
X2.2673 Y0.1812
X2.2543 Y0.1829
X2.241 Y0.1836
X2.2275 Y0.1832
X2.2138 Y0.1816
X2.2002 Y0.179
X2.1867 Y0.1752
X2.1733 Y0.1703
X2.1603 Y0.1643
X2.1478 Y0.1572
X2.1357 Y0.1491
X2.1243 Y0.14
X2.1136 Y0.1299
X2.1036 Y0.119
X2.0946 Y0.1072
X2.0865 Y0.0948
X2.0794 Y0.0816
X2.0733 Y0.0679
X2.0684 Y0.0537
X2.0646 Y0.0392
X2.062 Y0.0243
X2.0606 Y0.0093
X2.0604 Y-0.0058
X2.0614 Y-0.0209
X2.0636 Y-0.0359
X2.067 Y-0.0507
X2.0716 Y-0.0652
X2.0774 Y-0.0793
X2.0843 Y-0.0928
X2.0922 Y-0.1058
X2.1012 Y-0.1181
X2.1111 Y-0.1297
X2.1219 Y-0.1404
X2.1336 Y-0.1502
X2.146 Y-0.1591
X2.159 Y-0.1669
X2.1727 Y-0.1737
X2.1869 Y-0.1793
X2.2015 Y-0.1838
X2.2164 Y-0.1871
X2.2315 Y-0.1892
X2.2467 Y-0.1901
X2.262 Y-0.1898
X2.2772 Y-0.1882
X2.2922 Y-0.1854
X2.3069 Y-0.1814
X2.3213 Y-0.1763
X2.3352 Y-0.17
X2.3486 Y-0.1626
X2.3613 Y-0.1542
X2.3733 Y-0.1447
X2.3845 Y-0.1344
X2.3949 Y-0.1232
X2.4043 Y-0.1111
X2.4127 Y-0.0984
X2.4273 Y-0.072
X2.4397 Y-0.0445
X2.4476 Y-0.0224
X2.4529 Y-0.0025
X2.4563 Y0.016
X2.4582 Y0.034
X2.4585 Y0.0513
X2.4575 Y0.0682
X2.4552 Y0.0847
X2.4517 Y0.1008
X2.4468 Y0.1165
X2.4407 Y0.1318
X2.4333 Y0.1466
X2.4248 Y0.1609
X2.415 Y0.1746
X2.404 Y0.1875
X2.3919 Y0.1997
X2.3788 Y0.211
X2.3645 Y0.2214
X2.3493 Y0.2307
X2.3331 Y0.2388
X2.3161 Y0.2458
X2.2984 Y0.2514
X2.28 Y0.2556
X2.2611 Y0.2584
X2.2419 Y0.2597
X2.2224 Y0.2594
X2.2028 Y0.2576
X2.1832 Y0.2541
X2.1639 Y0.249
X2.1448 Y0.2424
X2.1263 Y0.2342
X2.1083 Y0.2245
X2.091 Y0.2133
X2.0747 Y0.2006
X2.0593 Y0.1867
X2.045 Y0.1714
X2.032 Y0.155
X2.0202 Y0.1376
X2.0099 Y0.1192
X2.001 Y0.0999
X1.9937 Y0.08
X1.988 Y0.0595
X1.984 Y0.0385
X1.9816 Y0.0173
X1.981 Y-0.0041
X1.982 Y-0.0255
X1.9848 Y-0.0468
X1.9893 Y-0.0678
X1.9955 Y-0.0885
X2.0034 Y-0.1085
X2.0128 Y-0.1279
X2.0237 Y-0.1465
X2.0361 Y-0.1642
X2.0499 Y-0.1808
X2.065 Y-0.1962
X2.0813 Y-0.2104
X2.0987 Y-0.2233
X2.1171 Y-0.2347
X2.1363 Y-0.2446
X2.1563 Y-0.253
X2.1769 Y-0.2597
X2.1979 Y-0.2647
X2.2193 Y-0.2681
X2.2409 Y-0.2697
X2.2626 Y-0.2695
X2.2842 Y-0.2677
X2.3055 Y-0.2641
X2.3265 Y-0.2588
X2.347 Y-0.2518
X2.3669 Y-0.2432
X2.3861 Y-0.233
X2.4043 Y-0.2214
X2.4216 Y-0.2083
X2.4399 Y-0.1919
X2.4582 Y-0.1727
X2.4754 Y-0.1515
X2.4911 Y-0.1285
X2.5049 Y-0.1045
X2.5164 Y-0.0801
X2.5257 Y-0.0554
X2.5328 Y-0.0306
X2.5377 Y-0.0059
X2.5407 Y0.0187
X2.5416 Y0.0431
X2.5406 Y0.0672
X2.5377 Y0.091
X2.5329 Y0.1143
X2.5262 Y0.1371
X2.5178 Y0.1592
X2.5076 Y0.1806
X2.4958 Y0.2012
X2.4822 Y0.2208
X2.4671 Y0.2393
X2.4504 Y0.2567
X2.4323 Y0.2728
X2.4127 Y0.2874
X2.3919 Y0.3006
X2.3699 Y0.3122
X2.3469 Y0.322
X2.3229 Y0.3301
X2.2982 Y0.3362
X2.2729 Y0.3404
X2.2471 Y0.3425
X2.2211
X2.1949 Y0.3405
X2.1689 Y0.3363
X2.143 Y0.33
X2.1177 Y0.3216
X2.0929 Y0.3112
X2.0689 Y0.2987
X2.0459 Y0.2843
X2.024 Y0.268
X2.0035 Y0.2499
X1.9843 Y0.2301
X1.9667 Y0.2088
X1.9509 Y0.1861
X1.9369 Y0.162
X1.9248 Y0.1369
X1.9147 Y0.1108
X1.9068 Y0.084
X1.901 Y0.0565
X1.8975 Y0.0286
X1.8962 Y0.0004
X1.8971 Y-0.0278
X1.9003 Y-0.0558
X1.9058 Y-0.0836
X1.9135 Y-0.1108
X1.9234 Y-0.1374
X1.9353 Y-0.1631
X1.9493 Y-0.1877
X1.9653 Y-0.2112
X1.983 Y-0.2334
X2.0026 Y-0.254
X2.0237 Y-0.2731
X2.0463 Y-0.2903
X2.0702 Y-0.3057
X2.0952 Y-0.3192
X2.1213 Y-0.3306
X2.1482 Y-0.3399
X2.1758 Y-0.3469
X2.2039 Y-0.3518
X2.2322 Y-0.3544
X2.2607 Y-0.3547
X2.2891 Y-0.3527
X2.3173 Y-0.3484
X2.345 Y-0.3419
X2.3721 Y-0.3332
X2.3985 Y-0.3223
X2.4245 Y-0.309
X2.4502 Y-0.2932
X2.4754 Y-0.2748
X2.4996 Y-0.2538
X2.5225 Y-0.2305
X2.5437 Y-0.2052
X2.5629 Y-0.1782
X2.5798 Y-0.1498
X2.5943 Y-0.1204
X2.6062 Y-0.0901
X2.6156 Y-0.0592
X2.6225 Y-0.0279
X2.6267 Y0.0036
X2.6285 Y0.0351
X2.6277 Y0.0664
X2.6244 Y0.0973
X2.6186 Y0.1278
X2.6105 Y0.1577
X2.5999 Y0.1867
X2.5871 Y0.2148
X2.5721 Y0.2419
X2.5549 Y0.2676
X2.5357 Y0.292
X2.5144 Y0.3149
X2.4913 Y0.336
X2.4665 Y0.3554
X2.44 Y0.3728
X2.412 Y0.3881
X2.3828 Y0.4011
X2.3524 Y0.4119
X2.321 Y0.4202
X2.2889 Y0.426
X2.2563 Y0.4293
X2.2233 Y0.4299
X2.1901 Y0.4278
X2.1571 Y0.4231
X2.1244 Y0.4157
X2.0923 Y0.4057
X2.0609 Y0.393
X2.0304 Y0.3778
X2.0012 Y0.3602
X1.9734 Y0.3401
X1.9472 Y0.3178
X1.9228 Y0.2934
X1.9003 Y0.2671
X1.88 Y0.2389
X1.862 Y0.2092
X1.8463 Y0.178
X1.8332 Y0.1455
X1.8227 Y0.1121
X1.8149 Y0.0778
X1.8099 Y0.043
X1.8077 Y0.0079
X1.8083 Y-0.0274
X1.8118 Y-0.0626
X1.818 Y-0.0974
X1.8271 Y-0.1316
X1.8388 Y-0.165
X1.8533 Y-0.1974
X1.8703 Y-0.2285
X1.8897 Y-0.2582
X1.9115 Y-0.2862
X1.9355 Y-0.3125
X1.9615 Y-0.3367
X1.9893 Y-0.3587
X2.0189 Y-0.3785
X2.05 Y-0.3958
X2.0823 Y-0.4106
X2.1158 Y-0.4228
X2.1501 Y-0.4322
X2.1851 Y-0.4388
X2.2205 Y-0.4426
X2.2561 Y-0.4436
X2.2916 Y-0.4417
X2.3269 Y-0.4369
X2.3619 Y-0.4293
X2.3963 Y-0.4189
X2.4302 Y-0.4055
X2.4634 Y-0.3893
X2.4957 Y-0.3701
X2.5269 Y-0.348
X2.5568 Y-0.3231
X2.5846 Y-0.2957
X2.6101 Y-0.2663
X2.6333 Y-0.2349
X2.6539 Y-0.2018
X2.6718 Y-0.1672
X2.687 Y-0.1313
X2.6993 Y-0.0943
X2.7086 Y-0.0564
X2.7148 Y-0.0179
X2.7179 Y0.0207
Y0.0593
X2.7148 Y0.0977
X2.7087 Y0.1355
X2.6996 Y0.1727
X2.6875 Y0.209
X2.6725 Y0.2441
X2.6548 Y0.278
X2.6344 Y0.3104
X2.6114 Y0.3411
X2.586 Y0.3699
X2.5582 Y0.3967
X2.5282 Y0.4213
X2.4963 Y0.4435
X2.4626 Y0.463
X2.4274 Y0.4799
X2.391 Y0.4938
X2.3536 Y0.5049
X2.3155 Y0.5129
X2.2768 Y0.518
X2.2378 Y0.52
X2.1989 Y0.5189
X2.1601 Y0.5149
X2.1217 Y0.5079
X2.084 Y0.4979
X2.0472 Y0.4851
X2.0114 Y0.4696
X1.977 Y0.4514
X1.9439 Y0.4306
X1.9126 Y0.4074
X1.8831 Y0.3819
X1.8556 Y0.3543
X1.8303 Y0.3246
X1.8073 Y0.2931
X1.7867 Y0.26
X1.7686 Y0.2255
X1.7531 Y0.1897
X1.7403 Y0.1529
X1.7302 Y0.1152
X1.723 Y0.0769
X1.7185 Y0.0382
X1.7169 Y-0.0008
X1.7182 Y-0.0397
X1.7223 Y-0.0785
X1.7294 Y-0.1169
X1.7392 Y-0.1546
X1.7519 Y-0.1915
X1.7671 Y-0.2274
X1.785 Y-0.262
X1.8053 Y-0.2953
X1.828 Y-0.327
X1.8529 Y-0.357
X1.8799 Y-0.3851
X1.9089 Y-0.4111
X1.9398 Y-0.435
X1.9723 Y-0.4565
X2.0064 Y-0.4755
X2.0417 Y-0.492
X2.0781 Y-0.5058
X2.1155 Y-0.517
X2.1536 Y-0.5254
X2.1921 Y-0.5311
X2.231 Y-0.5339
X2.27 Y-0.534
X2.3089 Y-0.5312
X2.3475 Y-0.5255
X2.3855 Y-0.517
X2.4229 Y-0.5058
X2.4593 Y-0.4919
X2.4947 Y-0.4754
X2.5288 Y-0.4566
X2.5616 Y-0.4355
X2.5928 Y-0.4122
X2.6224 Y-0.3867
X2.6501 Y-0.3593
X2.6759 Y-0.3301
X2.6997 Y-0.2992
X2.7215 Y-0.2669
X2.7411 Y-0.2332
X2.7583 Y-0.1982
X2.7731 Y-0.1621
X2.7855 Y-0.1251
X2.7953 Y-0.0874
X2.8027 Y-0.0491
X2.8074 Y-0.0104
X2.8096 Y0.0285
X2.809 Y0.0675
X2.8057 Y0.1064
X2.7998 Y0.1449
X2.7913 Y0.1829
X2.7802 Y0.2203
X2.7667 Y0.2569
X2.7506 Y0.2924
X2.7321 Y0.3267
X2.7112 Y0.3597
X2.6882 Y0.3911
X2.663 Y0.4209
X2.636 Y0.449
X2.6071 Y0.4752
X2.5764 Y0.4993
X2.5442 Y0.5212
X2.5105 Y0.5409
X2.4757 Y0.5583
X2.4397 Y0.5734
X2.4028 Y0.586
X2.3652 Y0.5962
X2.3269 Y0.6038
X2.2882 Y0.6088
X2.2493 Y0.6112
X2.2103 Y0.6111
X2.1714 Y0.6085
X2.1328 Y0.6034
X2.0946 Y0.5957
X2.0569 Y0.5855
X2.02 Y0.5729
X1.984 Y0.5579
X1.949 Y0.5407
X1.9152 Y0.5213
X1.8827 Y0.4998
X1.8517 Y0.4762
X1.8222 Y0.4506
X1.7945 Y0.4232
X1.7686 Y0.3941
X1.7445 Y0.3634
X1.7225 Y0.3313
X1.7025 Y0.2978
X1.6847 Y0.2631
X1.6692 Y0.2273
X1.6559 Y0.1906
X1.645 Y0.1532
X1.6363 Y0.1152
X1.63 Y0.0767
X1.6262 Y0.0379
X1.6249 Y-0.0011
X1.6261 Y-0.04
X1.6297 Y-0.0789
X1.6358 Y-0.1174
X1.6441 Y-0.1555
X1.6549 Y-0.1929
X1.668 Y-0.2297
X1.6834 Y-0.2655
X1.701 Y-0.3002
X1.7208 Y-0.3339
X1.7425 Y-0.3662
X1.7662 Y-0.3972
X1.7918 Y-0.4266
X1.8192 Y-0.4544
X1.8483 Y-0.4803
X1.879 Y-0.5044
X1.9111 Y-0.5265
X1.9445 Y-0.5466
X1.9791 Y-0.5646
X2.0147 Y-0.5804
X2.0513 Y-0.5939
X2.0887 Y-0.6051
X2.1266 Y-0.6139
X2.1651 Y-0.6204
X2.2039 Y-0.6246
X2.2428 Y-0.6263
X2.2818 Y-0.6257
X2.3206 Y-0.6225
X2.3592 Y-0.6168
X2.3974 Y-0.6088
X2.435 Y-0.5985
X2.4719 Y-0.586
X2.508 Y-0.5712
X2.5431 Y-0.5543
X2.5772 Y-0.5353
X2.61 Y-0.5142
X2.6415 Y-0.4913
X2.6716 Y-0.4665
X2.7003 Y-0.44
X2.7273 Y-0.412
X2.7527 Y-0.3824
X2.7763 Y-0.3514
X2.7981 Y-0.319
X2.8179 Y-0.2854
X2.8358 Y-0.2508
X2.8516 Y-0.2152
X2.8654 Y-0.1787
X2.8771 Y-0.1415
X2.8866 Y-0.1037
X2.8938 Y-0.0654
X2.8988 Y-0.0267
X2.9015 Y0.0122
X2.9019 Y0.0512
X2.9001 Y0.0901
X2.8961 Y0.1289
X2.8897 Y0.1674
X2.881 Y0.2054
X2.8701 Y0.2428
X2.857 Y0.2796
X2.8418 Y0.3155
X2.8246 Y0.3504
X2.8053 Y0.3843
X2.784 Y0.417
X2.7608 Y0.4483
X2.7358 Y0.4782
X2.7091 Y0.5067
X2.6808 Y0.5335
X2.651 Y0.5586
X2.6197 Y0.582
X2.5872 Y0.6034
X2.5534 Y0.6229
X2.5186 Y0.6404
X2.4828 Y0.6559
X2.4462 Y0.6693
X2.4088 Y0.6806
X2.3709 Y0.6897
X2.3326 Y0.6966
X2.2939 Y0.7013
X2.2549 Y0.7037
X2.216 Y0.7039
X2.177 Y0.702
X2.1382 Y0.6978
X2.0998 Y0.6915
X2.0617 Y0.6831
X2.0242 Y0.6725
X1.9873 Y0.6597
X1.9513 Y0.6449
X1.9161 Y0.6281
X1.8818 Y0.6095
X1.8487 Y0.5889
X1.8168 Y0.5666
X1.7861 Y0.5424
X1.7569 Y0.5166
X1.7292 Y0.4892
X1.703 Y0.4603
X1.6785 Y0.43
X1.6556 Y0.3984
X1.6345 Y0.3656
X1.6153 Y0.3317
X1.5979 Y0.2968
X1.5825 Y0.261
X1.5692 Y0.2243
X1.5578 Y0.187
X1.5485 Y0.1492
X1.5412 Y0.1109
X1.536 Y0.0722
X1.5329 Y0.0334
X1.532 Y-0.0056
X1.5333 Y-0.0446
X1.5367 Y-0.0834
X1.5422 Y-0.122
X1.5498 Y-0.1603
X1.5594 Y-0.1981
X1.571 Y-0.2353
X1.5847 Y-0.2718
X1.6004 Y-0.3075
X1.618 Y-0.3423
X1.6375 Y-0.376
X1.6587 Y-0.4087
X1.6817 Y-0.4402
X1.7063 Y-0.4705
X1.7326 Y-0.4993
X1.7603 Y-0.5267
X1.7896 Y-0.5524
X1.8202 Y-0.5766
X1.8521 Y-0.599
X1.8852 Y-0.6197
X1.9193 Y-0.6386
X1.9543 Y-0.6556
X1.9903 Y-0.6707
X2.027 Y-0.6838
X2.0644 Y-0.6949
X2.1023 Y-0.7039
X2.1407 Y-0.7108
X2.1794 Y-0.7158
X2.2183 Y-0.7186
X2.2573 Y-0.7193
X2.2962 Y-0.718
X2.3351 Y-0.7144
X2.3736 Y-0.7087
X2.4118 Y-0.701
X2.4496 Y-0.6912
X2.4868 Y-0.6795
X2.5233 Y-0.6658
X2.5591 Y-0.6503
X2.5939 Y-0.6329
X2.6278 Y-0.6136
X2.6606 Y-0.5925
X2.6923 Y-0.5698
X2.7228 Y-0.5455
X2.752 Y-0.5196
X2.7799 Y-0.4923
X2.8063 Y-0.4637
X2.8312 Y-0.4337
X2.8546 Y-0.4025
X2.8763 Y-0.3701
X2.8963 Y-0.3366
X2.9146 Y-0.3022
X2.9311 Y-0.2669
X2.9459 Y-0.2308
X2.9588 Y-0.194
X2.9699 Y-0.1566
X2.9789 Y-0.1187
X2.986 Y-0.0804
X2.9911 Y-0.0417
X2.9942 Y-0.0028
X2.9954 Y0.0361
X2.9945 Y0.0751
X2.9917 Y0.114
X2.9869 Y0.1527
X2.9801 Y0.1911
X2.9713 Y0.2291
X2.9605 Y0.2665
X2.9478 Y0.3034
X2.9332 Y0.3396
X2.9168 Y0.3749
X2.8986 Y0.4094
X2.8787 Y0.4429
X2.8571 Y0.4754
X2.8337 Y0.5066
X2.8088 Y0.5366
X2.7823 Y0.5652
X2.7545 Y0.5925
X2.7253 Y0.6184
X2.6948 Y0.6427
X2.6631 Y0.6654
X2.6303 Y0.6865
X2.5965 Y0.7058
X2.5617 Y0.7234
X2.526 Y0.7391
X2.4896 Y0.7531
X2.4525 Y0.7652
X2.4149 Y0.7755
X2.3768 Y0.7838
X2.3384 Y0.7902
X2.2996 Y0.7946
X2.2607 Y0.7971
X2.2217 Y0.7976
X2.1828 Y0.7961
X2.1439 Y0.7927
X2.1053 Y0.7875
X2.0669 Y0.7803
X2.029 Y0.7713
X1.9916 Y0.7603
X1.9548 Y0.7475
X1.9187 Y0.7328
X1.8833 Y0.7164
X1.8488 Y0.6983
X1.8151 Y0.6785
X1.7825 Y0.6571
X1.751 Y0.6342
X1.7207 Y0.6097
X1.6916 Y0.5837
X1.6638 Y0.5564
X1.6375 Y0.5276
X1.6125 Y0.4977
X1.589 Y0.4665
X1.5671 Y0.4343
X1.5467 Y0.4011
X1.5279 Y0.3669
X1.5109 Y0.3318
X1.4956 Y0.296
X1.4821 Y0.2594
X1.4704 Y0.2222
X1.4604 Y0.1845
X1.4523 Y0.1464
X1.446 Y0.1079
X1.4415 Y0.0692
X1.4389 Y0.0303
X1.4383 Y-0.0087
X1.4396 Y-0.0477
X1.4427 Y-0.0866
X1.4478 Y-0.1252
X1.4546 Y-0.1636
X1.4633 Y-0.2016
X1.4738 Y-0.2392
X1.486 Y-0.2762
X1.5001 Y-0.3126
X1.5159 Y-0.3482
X1.5335 Y-0.383
X1.5527 Y-0.417
X1.5735 Y-0.4499
X1.5958 Y-0.4819
X1.6196 Y-0.5128
X1.6448 Y-0.5425
X1.6715 Y-0.571
X1.6995 Y-0.5981
X1.7288 Y-0.6238
X1.7593 Y-0.6481
X1.791 Y-0.6708
X1.8237 Y-0.6921
X1.8573 Y-0.7117
X1.8919 Y-0.7298
X1.9273 Y-0.7462
X1.9634 Y-0.7609
X2.0002 Y-0.7737
X2.0376 Y-0.7848
X2.0755 Y-0.794
X2.1137 Y-0.8015
X2.1523 Y-0.8071
X2.1911 Y-0.8109
X2.2301 Y-0.8128
X2.2691 Y-0.813
X2.308 Y-0.8112
X2.3468 Y-0.8074
X2.3854 Y-0.8019
X2.4237 Y-0.7944
X2.4616 Y-0.7852
X2.499 Y-0.7743
X2.5359 Y-0.7616
X2.5721 Y-0.7472
X2.6077 Y-0.7312
X2.6424 Y-0.7135
X2.6762 Y-0.6941
X2.7091 Y-0.6731
X2.741 Y-0.6507
X2.7718 Y-0.6268
X2.8016 Y-0.6016
X2.8301 Y-0.5751
X2.8575 Y-0.5473
X2.8835 Y-0.5183
X2.9082 Y-0.4881
X2.9314 Y-0.4568
X2.9532 Y-0.4244
X2.9735 Y-0.3911
X2.9923 Y-0.3569
X3.0095 Y-0.322
X3.0251 Y-0.2862
X3.0392 Y-0.2499
X3.0516 Y-0.2129
X3.0622 Y-0.1754
X3.0711 Y-0.1374
X3.0783 Y-0.0991
X3.0836 Y-0.0605
X3.0873 Y-0.0217
X3.0891 Y0.0173
X3.0893 Y0.0563
X3.0876 Y0.0952
X3.0842 Y0.1341
X3.079 Y0.1727
X3.072 Y0.2111
X3.0632 Y0.2491
X3.0527 Y0.2866
X3.0405 Y0.3236
X3.0266 Y0.36
X3.011 Y0.3958
X2.9939 Y0.4308
X2.9752 Y0.465
X2.9549 Y0.4984
X2.9331 Y0.5307
X2.9098 Y0.5619
X2.8851 Y0.5921
X2.859 Y0.6211
X2.8317 Y0.6489
X2.8031 Y0.6754
X2.7734 Y0.7006
X2.7425 Y0.7245
X2.7106 Y0.7469
X2.6777 Y0.7678
X2.6439 Y0.7871
X2.6092 Y0.8049
X2.5737 Y0.8211
X2.5375 Y0.8357
X2.5008 Y0.8487
X2.4634 Y0.86
X2.4257 Y0.8697
X2.3875 Y0.8776
X2.349 Y0.8838
X2.3103 Y0.8882
X2.2714 Y0.8908
X2.2324 Y0.8918
X2.1934 Y0.8909
X2.1545 Y0.8884
X2.1157 Y0.8842
X2.0772 Y0.8783
X2.0389 Y0.8707
X2.0011 Y0.8613
X1.9637 Y0.8503
X1.9268 Y0.8376
X1.8906 Y0.8233
X1.855 Y0.8074
X1.8201 Y0.7899
X1.786 Y0.771
X1.7528 Y0.7506
X1.7204 Y0.7288
X1.6891 Y0.7056
X1.6589 Y0.681
X1.6298 Y0.655
X1.6019 Y0.6278
X1.5751 Y0.5994
X1.5497 Y0.5699
X1.5255 Y0.5393
X1.5027 Y0.5077
X1.4812 Y0.4751
X1.4612 Y0.4417
X1.4426 Y0.4074
X1.4257 Y0.3723
X1.4102 Y0.3365
X1.3964 Y0.3
X1.3841 Y0.263
X1.3734 Y0.2255
X1.3644 Y0.1876
X1.3569 Y0.1493
X1.3511 Y0.1108
X1.347 Y0.072
X1.3446 Y0.0331
X1.3439 Y-0.0059
X1.345 Y-0.0449
X1.3477 Y-0.0838
X1.3521 Y-0.1225
X1.3581 Y-0.1611
X1.3658 Y-0.1993
X1.375 Y-0.2372
X1.3859 Y-0.2746
X1.3984 Y-0.3115
X1.4126 Y-0.3479
X1.4283 Y-0.3835
X1.4455 Y-0.4185
X1.4643 Y-0.4527
X1.4844 Y-0.4861
X1.506 Y-0.5186
X1.5289 Y-0.5501
X1.5531 Y-0.5807
X1.5786 Y-0.6102
X1.6054 Y-0.6385
X1.6335 Y-0.6656
X1.6626 Y-0.6914
X1.6929 Y-0.716
X1.7242 Y-0.7393
X1.7564 Y-0.7612
X1.7896 Y-0.7817
X1.8236 Y-0.8008
X1.8583 Y-0.8185
X1.8938 Y-0.8346
X1.93 Y-0.8492
X1.9668 Y-0.8621
X2.0041 Y-0.8734
X2.0419 Y-0.8831
X2.08 Y-0.8913
X2.1185 Y-0.8978
X2.1571 Y-0.9026
X2.196 Y-0.9059
X2.235 Y-0.9075
X2.2739 Y-0.9073
X2.3129 Y-0.9054
X2.3517 Y-0.9019
X2.3904 Y-0.8967
X2.4287 Y-0.8898
X2.4668 Y-0.8814
X2.5045 Y-0.8713
X2.5417 Y-0.8597
X2.5784 Y-0.8466
X2.6146 Y-0.8319
X2.65 Y-0.8157
X2.6847 Y-0.798
X2.7187 Y-0.7788
X2.7518 Y-0.7582
X2.784 Y-0.7363
X2.8153 Y-0.713
X2.8457 Y-0.6885
X2.875 Y-0.6628
X2.9032 Y-0.6359
X2.9304 Y-0.6079
X2.9563 Y-0.5788
X2.981 Y-0.5486
X3.0044 Y-0.5174
X3.0265 Y-0.4853
X3.0472 Y-0.4523
X3.0666 Y-0.4185
X3.0847 Y-0.3839
X3.1013 Y-0.3487
X3.1166 Y-0.3128
X3.1303 Y-0.2763
X3.1425 Y-0.2393
X3.1532 Y-0.2018
X3.1622 Y-0.1638
X3.1697 Y-0.1256
X3.1757 Y-0.087
X3.18 Y-0.0483
X3.1828 Y-0.0094
X3.184 Y0.0296
X3.1837 Y0.0686
X3.1817 Y0.1075
X3.1781 Y0.1463
X3.1729 Y0.185
X3.166 Y0.2234
X3.1576 Y0.2614
X3.1476 Y0.2991
X3.1361 Y0.3364
X3.1231 Y0.3731
X3.1085 Y0.4093
X3.0926 Y0.4449
X3.0752 Y0.4798
X3.0563 Y0.5139
X3.036 Y0.5472
X3.0143 Y0.5796
X2.9913 Y0.6111
X2.967 Y0.6416
X2.9415 Y0.6711
X2.9149 Y0.6995
X2.8871 Y0.7268
X2.8582 Y0.753
X2.8283 Y0.778
X2.7973 Y0.8017
X2.7654 Y0.8241
X2.7326 Y0.8452
X2.6989 Y0.8648
X2.6644 Y0.8831
X2.6293 Y0.9
X2.5935 Y0.9154
X2.5571 Y0.9294
X2.5202 Y0.9419
X2.4828 Y0.953
X2.445 Y0.9625
X2.4068 Y0.9704
X2.3683 Y0.9767
X2.3296 Y0.9814
X2.2907 Y0.9846
X2.2518 Y0.9862
X2.2128 Y0.9863
X2.1738 Y0.9848
X2.135 Y0.9818
X2.0962 Y0.9773
X2.0577 Y0.9711
X2.0195 Y0.9635
X1.9816 Y0.9542
X1.9441 Y0.9434
X1.9071 Y0.9312
X1.8706 Y0.9174
X1.8347 Y0.9023
X1.7994 Y0.8858
X1.7648 Y0.8678
X1.7309 Y0.8486
X1.6977 Y0.828
X1.6655 Y0.8061
X1.6342 Y0.7829
X1.6038 Y0.7584
X1.5744 Y0.7328
X1.5461 Y0.706
X1.5188 Y0.6781
X1.4927 Y0.6492
X1.4676 Y0.6193
X1.4438 Y0.5885
X1.4212 Y0.5567
X1.3998 Y0.5241
X1.3798 Y0.4906
X1.3612 Y0.4564
X1.3439 Y0.4214
X1.3281 Y0.3858
X1.3136 Y0.3496
X1.3005 Y0.3128
X1.2889 Y0.2756
X1.2787 Y0.238
X1.2699 Y0.2
X1.2627 Y0.1617
X1.257 Y0.1231
X1.2528 Y0.0844
X1.2502 Y0.0455
X1.2491 Y0.0065
X1.2496 Y-0.0325
X1.2516 Y-0.0715
X1.255 Y-0.1103
X1.26 Y-0.149
X1.2664 Y-0.1874
X1.2743 Y-0.2256
X1.2837 Y-0.2634
X1.2947 Y-0.3009
X1.3071 Y-0.3378
X1.3209 Y-0.3743
X1.3362 Y-0.4102
X1.3528 Y-0.4454
X1.3708 Y-0.48
X1.3901 Y-0.5139
X1.4107 Y-0.547
X1.4326 Y-0.5793
X1.4556 Y-0.6107
X1.4799 Y-0.6412
X1.5054 Y-0.6707
X1.5321 Y-0.6992
X1.5598 Y-0.7266
X1.5886 Y-0.7528
X1.6184 Y-0.778
X1.6492 Y-0.802
X1.6808 Y-0.8248
X1.7133 Y-0.8463
X1.7466 Y-0.8666
X1.7806 Y-0.8856
X1.8154 Y-0.9032
X1.8509 Y-0.9194
X1.887 Y-0.9342
X1.9236 Y-0.9476
X1.9607 Y-0.9596
X1.9983 Y-0.9701
X2.0362 Y-0.9791
X2.0744 Y-0.9868
X2.1129 Y-0.9929
X2.1516 Y-0.9976
X2.1905 Y-1.0007
X2.2295 Y-1.0023
X2.2684
X2.3074 Y-1.0008
X2.3463 Y-0.9978
X2.385 Y-0.9933
X2.4235 Y-0.9873
X2.4618 Y-0.9799
X2.4998 Y-0.971
X2.5374 Y-0.9607
X2.5746 Y-0.949
X2.6113 Y-0.9358
X2.6474 Y-0.9212
X2.683 Y-0.9052
X2.7179 Y-0.8878
X2.7521 Y-0.8692
X2.7856 Y-0.8492
X2.8184 Y-0.828
X2.8503 Y-0.8057
X2.8814 Y-0.7821
X2.9115 Y-0.7574
X2.9408 Y-0.7316
X2.969 Y-0.7047
X2.9962 Y-0.6768
X3.0223 Y-0.6478
X3.0473 Y-0.6179
X3.0712 Y-0.5871
X3.0939 Y-0.5554
X3.1154 Y-0.5229
X3.1357 Y-0.4896
X3.1548 Y-0.4556
X3.1726 Y-0.4209
X3.1892 Y-0.3856
X3.2044 Y-0.3497
X3.2182 Y-0.3132
X3.2306 Y-0.2763
X3.2416 Y-0.2389
X3.2512 Y-0.2011
X3.2595 Y-0.163
X3.2663 Y-0.1246
X3.2716 Y-0.086
X3.2756 Y-0.0472
X3.2782 Y-0.0083
X3.2793 Y0.0307
X3.2789 Y0.0697
X3.277 Y0.1086
X3.2736 Y0.1475
X3.2688 Y0.1862
X3.2625 Y0.2247
X3.2548 Y0.2629
X3.2457 Y0.3008
X3.2352 Y0.3383
X3.2233 Y0.3755
X3.21 Y0.4121
X3.1954 Y0.4483
X3.1794 Y0.4839
X3.1621 Y0.5188
X3.1434 Y0.553
X3.1235 Y0.5865
X3.1023 Y0.6193
X3.0799 Y0.6512
X3.0564 Y0.6823
X3.0317 Y0.7124
X3.0059 Y0.7417
X2.9791 Y0.77
X2.9512 Y0.7972
X2.9223 Y0.8234
X2.8924 Y0.8485
X2.8616 Y0.8724
X2.83 Y0.8951
X2.7975 Y0.9167
X2.7642 Y0.937
X2.7302 Y0.9561
X2.6955 Y0.9739
X2.6602 Y0.9904
X2.6243 Y1.0057
X2.5879 Y1.0196
X2.5509 Y1.0321
X2.5136 Y1.0432
X2.4758 Y1.0529
X2.4377 Y1.0612
X2.3993 Y1.0681
X2.3607 Y1.0736
X2.322 Y1.0777
X2.2831 Y1.0803
X2.2441 Y1.0816
X2.2051 Y1.0814
X2.1661 Y1.0798
X2.1273 Y1.0768
X2.0885 Y1.0723
X2.05 Y1.0664
X2.0117 Y1.0591
X1.9737 Y1.0504
X1.936 Y1.0403
X1.8988 Y1.0288
X1.8619 Y1.0161
X1.8256 Y1.002
X1.7897 Y0.9866
X1.7545 Y0.9699
X1.7199 Y0.952
X1.6859 Y0.9328
X1.6527 Y0.9123
X1.6203 Y0.8907
X1.5887 Y0.8679
X1.5579 Y0.8439
X1.528 Y0.8189
X1.499 Y0.7928
X1.471 Y0.7657
X1.4439 Y0.7376
X1.4179 Y0.7086
X1.3929 Y0.6787
X1.3691 Y0.6478
X1.3464 Y0.6161
X1.3248 Y0.5836
X1.3044 Y0.5504
X1.2853 Y0.5164
X1.2674 Y0.4818
X1.2507 Y0.4466
X1.2353 Y0.4107
X1.2211 Y0.3744
X1.2082 Y0.3376
X1.1967 Y0.3004
X1.1865 Y0.2627
X1.1777 Y0.2247
X1.1703 Y0.1865
X1.1642 Y0.148
X1.1595 Y0.1092
X1.1563 Y0.0704
X1.1544 Y0.0314
X1.1539 Y-0.0075
X1.1547 Y-0.0465
X1.157 Y-0.0854
X1.1606 Y-0.1243
X1.1656 Y-0.1629
X1.172 Y-0.2014
X1.1798 Y-0.2396
X1.1889 Y-0.2775
X1.1994 Y-0.3151
X1.2112 Y-0.3522
X1.2244 Y-0.3889
X1.2388 Y-0.4251
X1.2545 Y-0.4608
X1.2715 Y-0.4959
X1.2897 Y-0.5304
X1.3091 Y-0.5643
X1.3296 Y-0.5974
X1.3514 Y-0.6297
X1.3743 Y-0.6613
X1.3983 Y-0.692
X1.4235 Y-0.7218
X1.4496 Y-0.7507
X1.4768 Y-0.7787
X1.5049 Y-0.8057
X1.534 Y-0.8316
X1.564 Y-0.8566
X1.5948 Y-0.8805
X1.6265 Y-0.9032
X1.6589 Y-0.9248
X1.6921 Y-0.9453
X1.7261 Y-0.9645
X1.7607 Y-0.9825
X1.7959 Y-0.9992
X1.8316 Y-1.0147
X1.868 Y-1.0289
X1.9047 Y-1.0418
X1.942 Y-1.0535
X1.9796 Y-1.0638
X2.0175 Y-1.0728
X2.0557 Y-1.0804
X2.0942 Y-1.0866
X2.1329 Y-1.0915
X2.1717 Y-1.095
X2.2107 Y-1.0971
X2.2497 Y-1.0977
X2.2887 Y-1.0971
X2.3276 Y-1.095
X2.3664 Y-1.0916
X2.4051 Y-1.0868
X2.4436 Y-1.0807
X2.4819 Y-1.0732
X2.5199 Y-1.0644
X2.5575 Y-1.0543
X2.5948 Y-1.0428
X2.6316 Y-1.03
X2.668 Y-1.0159
X2.7038 Y-1.0005
X2.7391 Y-0.984
X2.7738 Y-0.9662
X2.8079 Y-0.9472
X2.8413 Y-0.9271
X2.8739 Y-0.9058
X2.9059 Y-0.8834
X2.937 Y-0.8599
X2.9673 Y-0.8354
X2.9967 Y-0.8098
X3.0252 Y-0.7832
X3.0528 Y-0.7557
X3.0795 Y-0.7272
X3.1051 Y-0.6978
X3.1297 Y-0.6676
X3.1533 Y-0.6366
X3.1759 Y-0.6047
X3.1973 Y-0.5722
X3.2176 Y-0.5389
X3.2368 Y-0.5049
X3.2548 Y-0.4703
X3.2716 Y-0.4352
X3.2872 Y-0.3994
X3.3015 Y-0.3632
X3.3146 Y-0.3264
X3.3264 Y-0.2893
X3.337 Y-0.2518
X3.3463 Y-0.2139
X3.3543 Y-0.1757
X3.361 Y-0.1373
X3.3664 Y-0.0987
X3.3705 Y-0.0599
X3.3732 Y-0.021
X3.3746 Y0.0179
Y0.0569
X3.3733 Y0.0959
X3.3707 Y0.1348
X3.3667 Y0.1736
X3.3614 Y0.2122
X3.3548 Y0.2506
X3.3469 Y0.2888
X3.3377 Y0.3267
X3.3272 Y0.3643
X3.3154 Y0.4014
X3.3023 Y0.4382
X3.288 Y0.4744
X3.2724 Y0.5102
X3.2556 Y0.5454
X3.2376 Y0.5799
X3.2184 Y0.6139
X3.1981 Y0.6472
X3.1767 Y0.6797
X3.1541 Y0.7116
X3.1305 Y0.7426
X3.1059 Y0.7728
X3.0802 Y0.8021
X3.0535 Y0.8305
X3.0258 Y0.858
X2.9972 Y0.8845
X2.9678 Y0.9101
X2.9374 Y0.9346
X2.9063 Y0.958
X2.8744 Y0.9804
X2.8417 Y1.0017
X2.8083 Y1.0219
X2.7743 Y1.0409
X2.7396 Y1.0587
X2.7044 Y1.0754
X2.6686 Y1.0908
X2.6323 Y1.105
X2.5955 Y1.118
X2.5583 Y1.1297
X2.5207 Y1.1401
X2.4828 Y1.1493
X2.4446 Y1.1572
X2.4062 Y1.1638
X2.3676 Y1.1691
X2.3288 Y1.1731
X2.2899 Y1.1757
X2.2509 Y1.1771
X2.2119 Y1.1772
X2.173 Y1.1759
X2.1341 Y1.1733
X2.0953 Y1.1694
X2.0566 Y1.1642
X2.0182 Y1.1578
X1.98 Y1.15
X1.942 Y1.141
X1.9044 Y1.1307
X1.8672 Y1.1192
X1.8303 Y1.1064
X1.7939 Y1.0924
X1.758 Y1.0772
X1.7227 Y1.0608
X1.6879 Y1.0432
X1.6537 Y1.0245
X1.6201 Y1.0046
X1.5872 Y0.9837
X1.5551 Y0.9617
X1.5236 Y0.9386
X1.493 Y0.9144
X1.4632 Y0.8893
X1.4342 Y0.8632
X1.4061 Y0.8362
X1.3789 Y0.8082
X1.3527 Y0.7794
X1.3275 Y0.7497
X1.3032 Y0.7192
X1.2799 Y0.6878
X1.2578 Y0.6558
X1.2366 Y0.623
X1.2166 Y0.5896
X1.1977 Y0.5555
X1.1799 Y0.5208
X1.1632 Y0.4855
X1.1478 Y0.4497
X1.1335 Y0.4135
X1.1204 Y0.3767
X1.1085 Y0.3396
X1.0979 Y0.3021
X1.0885 Y0.2642
X1.0804 Y0.2261
X1.0735 Y0.1877
X1.0679 Y0.1491
X1.0635 Y0.1104
X1.0604 Y0.0715
X1.0586 Y0.0326
X1.0581 Y-0.0064
X1.0589 Y-0.0454
X1.0609 Y-0.0843
X1.0642 Y-0.1232
X1.0688 Y-0.1619
X1.0747 Y-0.2005
X1.0818 Y-0.2388
X1.0902 Y-0.2769
X1.0998 Y-0.3147
X1.1107 Y-0.3521
X1.1227 Y-0.3892
X1.136 Y-0.4259
X1.1505 Y-0.4621
X1.1661 Y-0.4978
X1.1829 Y-0.5329
X1.2009 Y-0.5676
X1.22 Y-0.6016
X1.2402 Y-0.6349
X1.2614 Y-0.6676
X1.2837 Y-0.6996
X1.3071 Y-0.7308
X1.3314 Y-0.7612
X1.3568 Y-0.7909
X1.3831 Y-0.8197
X1.4103 Y-0.8476
X1.4384 Y-0.8746
X1.4674 Y-0.9007
X1.4973 Y-0.9258
X1.5279 Y-0.9499
X1.5593 Y-0.973
X1.5915 Y-0.995
X1.6243 Y-1.016
X1.6578 Y-1.0359
X1.692 Y-1.0547
X1.7268 Y-1.0724
X1.7621 Y-1.089
X1.7979 Y-1.1044
X1.8342 Y-1.1185
X1.871 Y-1.1315
X1.9081 Y-1.1433
X1.9457 Y-1.1539
X1.9835 Y-1.1632
X2.0217 Y-1.1713
X2.06 Y-1.1782
X2.0986 Y-1.1838
X2.1374 Y-1.1881
X2.1763 Y-1.1911
X2.2152 Y-1.1929
X2.2542 Y-1.1935
X2.2932 Y-1.1927
X2.3321 Y-1.1907
X2.371 Y-1.1874
X2.4097 Y-1.1829
X2.4482 Y-1.1771
X2.4866 Y-1.17
X2.5247 Y-1.1617
X2.5625 Y-1.1522
X2.6 Y-1.1415
X2.6371 Y-1.1295
X2.6738 Y-1.1164
X2.7101 Y-1.1021
X2.7459 Y-1.0867
X2.7812 Y-1.0701
X2.8159 Y-1.0523
X2.85 Y-1.0335
X2.8836 Y-1.0136
X2.9164 Y-0.9926
X2.9486 Y-0.9706
X2.9801 Y-0.9476
X3.0108 Y-0.9236
X3.0408 Y-0.8986
X3.0699 Y-0.8727
X3.0982 Y-0.8459
X3.1257 Y-0.8182
X3.1522 Y-0.7897
X3.1779 Y-0.7603
X3.2026 Y-0.7301
X3.2263 Y-0.6992
X3.2491 Y-0.6675
X3.2708 Y-0.6352
X3.2915 Y-0.6021
X3.3112 Y-0.5684
X3.3298 Y-0.5342
X3.3473 Y-0.4993
X3.3637 Y-0.464
X3.379 Y-0.4281
X3.3932 Y-0.3918
X3.4062 Y-0.355
X3.418 Y-0.3179
X3.4287 Y-0.2804
X3.4381 Y-0.2425
X3.4464 Y-0.2044
X3.4534 Y-0.1661
X3.4593 Y-0.1275
X3.4639 Y-0.0888
X3.4674 Y-0.05
X3.4696 Y-0.0111
X3.4705 Y0.0279
X3.4703 Y0.0669
X3.4688 Y0.1059
X3.4661 Y0.1448
X3.4621 Y0.1836
X3.4569 Y0.2222
X3.4505 Y0.2607
X3.4428 Y0.2989
X3.434 Y0.3369
X3.424 Y0.3745
X3.4127 Y0.4119
X3.4004 Y0.4489
X3.3868 Y0.4854
X3.3721 Y0.5215
X3.3563 Y0.5572
X3.3393 Y0.5923
X3.3213 Y0.6268
X3.3021 Y0.6608
X3.2819 Y0.6941
X3.2606 Y0.7268
X3.2383 Y0.7588
X3.215 Y0.79
X3.1907 Y0.8206
X3.1655 Y0.8503
X3.1394 Y0.8792
X3.1123 Y0.9073
X3.0844 Y0.9345
X3.0556 Y0.9609
X3.0261 Y0.9863
X2.9957 Y1.0107
X2.9646 Y1.0342
X2.9327 Y1.0567
X2.9002 Y1.0782
X2.867 Y1.0986
X2.8331 Y1.118
X2.7987 Y1.1363
X2.7637 Y1.1535
X2.7282 Y1.1696
X2.6922 Y1.1846
X2.6558 Y1.1985
X2.6189 Y1.2112
X2.5817 Y1.2228
X2.5441 Y1.2332
X2.5062 Y1.2424
X2.4681 Y1.2504
X2.4297 Y1.2572
X2.3911 Y1.2628
X2.3524 Y1.2672
X2.3135 Y1.2704
X2.2746 Y1.2724
X2.2356 Y1.2731
X2.1966 Y1.2727
X2.1576 Y1.2711
X2.1187 Y1.2683
X2.08 Y1.2642
X2.0413 Y1.259
X2.0029 Y1.2525
X1.9646 Y1.2449
X1.9267 Y1.2361
X1.889 Y1.2261
X1.8516 Y1.2149
X1.8146 Y1.2026
X1.778 Y1.1892
X1.7418 Y1.1746
X1.7061 Y1.159
X1.6709 Y1.1422
X1.6362 Y1.1244
X1.6021 Y1.1056
X1.5686 Y1.0857
X1.5357 Y1.0647
X1.5035 Y1.0427
X1.4719 Y1.0198
X1.4411 Y0.9959
X1.4111 Y0.9711
X1.3818 Y0.9453
X1.3533 Y0.9187
X1.3256 Y0.8912
X1.2988 Y0.8629
X1.2729 Y0.8338
X1.2478 Y0.8039
X1.2237 Y0.7733
X1.2006 Y0.7419
X1.1784 Y0.7098
X1.1572 Y0.6771
X1.137 Y0.6437
X1.1179 Y0.6098
X1.0998 Y0.5752
X1.0827 Y0.5402
X1.0668 Y0.5046
X1.0519 Y0.4686
X1.0381 Y0.4321
X1.0254 Y0.3952
X1.0139 Y0.358
X1.0035 Y0.3204
X0.9942 Y0.2825
X0.9861 Y0.2444
X0.9792 Y0.206
X0.9734 Y0.1675
X0.9689 Y0.1287
X0.9655 Y0.0899
X0.9633 Y0.051
X0.9622 Y0.012
X0.9624 Y-0.027
X0.9637 Y-0.066
X0.9662 Y-0.1049
X0.9699 Y-0.1437
X0.9748 Y-0.1824
X0.9808 Y-0.2209
X0.988 Y-0.2592
X0.9963 Y-0.2973
X1.0059 Y-0.3351
X1.0165 Y-0.3726
X1.0283 Y-0.4098
X1.0413 Y-0.4466
X1.0553 Y-0.4829
X1.0704 Y-0.5189
X1.0866 Y-0.5544
X1.1039 Y-0.5893
X1.1222 Y-0.6237
X1.1415 Y-0.6576
X1.1619 Y-0.6909
X1.1832 Y-0.7235
X1.2056 Y-0.7554
X1.2289 Y-0.7867
X1.2531 Y-0.8172
X1.2783 Y-0.847
X1.3043 Y-0.876
X1.3313 Y-0.9042
X1.359 Y-0.9316
X1.3876 Y-0.9582
X1.4169 Y-0.9838
X1.4471 Y-1.0086
X1.4779 Y-1.0324
X1.5095 Y-1.0553
X1.5417 Y-1.0773
X1.5746 Y-1.0982
X1.6081 Y-1.1181
X1.6422 Y-1.137
X1.6769 Y-1.1549
X1.712 Y-1.1717
X1.7477 Y-1.1874
X1.7839 Y-1.2021
X1.8204 Y-1.2156
X1.8574 Y-1.2281
X1.8947 Y-1.2394
X1.9323 Y-1.2496
X1.9702 Y-1.2587
X2.0084 Y-1.2666
X2.0468 Y-1.2733
X2.0854 Y-1.2789
X2.1241 Y-1.2833
X2.163 Y-1.2865
X2.2019 Y-1.2886
X2.2409 Y-1.2895
X2.2799 Y-1.2892
X2.3189 Y-1.2877
X2.3578 Y-1.285
X2.3966 Y-1.2812
X2.4353 Y-1.2762
X2.4738 Y-1.2701
X2.5121 Y-1.2628
X2.5501 Y-1.2544
X2.5879 Y-1.2449
X2.6254 Y-1.2342
X2.6626 Y-1.2223
X2.6994 Y-1.2094
X2.7358 Y-1.1954
X2.7717 Y-1.1803
X2.8072 Y-1.1641
X2.8422 Y-1.1469
X2.8766 Y-1.1287
X2.9105 Y-1.1094
X2.9439 Y-1.0892
X2.9766 Y-1.068
X3.0087 Y-1.0458
X3.0401 Y-1.0227
X3.0708 Y-0.9987
X3.1008 Y-0.9738
X3.13 Y-0.948
X3.1585 Y-0.9214
X3.1862 Y-0.8939
X3.213 Y-0.8656
X3.239 Y-0.8366
X3.2642 Y-0.8068
X3.2885 Y-0.7763
X3.3118 Y-0.7451
X3.3343 Y-0.7132
X3.3558 Y-0.6807
X3.3764 Y-0.6476
X3.396 Y-0.6139
X3.4146 Y-0.5796
X3.4322 Y-0.5448
X3.4487 Y-0.5095
X3.4642 Y-0.4737
X3.4787 Y-0.4375
X3.4921 Y-0.4009
X3.5044 Y-0.3639
X3.5156 Y-0.3265
X3.5257 Y-0.2889
X3.5348 Y-0.251
X3.5427 Y-0.2128
X3.5495 Y-0.1744
X3.5552 Y-0.1358
X3.5598 Y-0.0971
X3.5632 Y-0.0583
X3.5655 Y-0.0193
X3.5666 Y0.0196
Y0.0586
X3.5654 Y0.0976
X3.5631 Y0.1365
X3.5597 Y0.1754
X3.5551 Y0.2141
X3.5494 Y0.2527
X3.5425 Y0.291
X3.5346 Y0.3292
X3.5255 Y0.3671
X3.5153 Y0.4048
X3.5041 Y0.4421
X3.4917 Y0.4791
X3.4782 Y0.5157
X3.4637 Y0.5518
X3.4481 Y0.5876
X3.4314 Y0.6228
X3.4138 Y0.6576
X3.3951 Y0.6918
X3.3754 Y0.7255
X3.3548 Y0.7585
X3.3331 Y0.791
X3.3106 Y0.8228
X3.2871 Y0.8539
X3.2628 Y0.8844
X3.2375 Y0.9141
X3.2114 Y0.943
X3.1844 Y0.9712
X3.1566 Y0.9986
X3.1281 Y1.0251
X3.0987 Y1.0508
X3.0686 Y1.0756
X3.0379 Y1.0995
X3.0064 Y1.1225
X2.9742 Y1.1446
X2.947 Y1.1621
X2.9454 Y1.1631
X2.9062 Y1.1857
X2.8715 Y1.2035
X2.8374 Y1.2225
X2.8027 Y1.2401
X2.7674 Y1.2566
X2.7315 Y1.2719
X2.6952 Y1.2861
X2.6584 Y1.2992
X2.6213 Y1.3111
X2.5839 Y1.322
X2.5461 Y1.3317
X2.5081 Y1.3403
X2.4698 Y1.3478
X2.4314 Y1.3542
X2.3927 Y1.3595
X2.354 Y1.3636
X2.3151 Y1.3667
X2.2761 Y1.3686
X2.2372 Y1.3694
X2.1982 Y1.369
X2.1592 Y1.3676
X2.1203 Y1.365
X2.0815 Y1.3612
X2.0428 Y1.3564
X2.0043 Y1.3504
X1.9659 Y1.3434
X1.9278 Y1.3352
X1.8899 Y1.326
X1.8523 Y1.3156
X1.815 Y1.3042
X1.7821 Y1.2931
X1.7785 Y1.2918
X1.7749 Y1.2902
X1.7715 Y1.2884
X1.4354 Y1.0943
X1.4026 Y1.0731
X1.37 Y1.0519
X1.3387 Y1.0286
X1.3085 Y1.0039
X1.2795 Y0.9778
X1.2515 Y0.9507
X1.2245 Y0.9226
X1.1983 Y0.8937
X1.1732 Y0.8639
X1.1489 Y0.8334
X1.1256 Y0.8021
X1.1032 Y0.7702
X1.0817 Y0.7377
X1.0612 Y0.7045
X1.0417 Y0.6708
X1.0231 Y0.6365
X1.0055 Y0.6017
X0.9889 Y0.5664
X0.9733 Y0.5307
X0.9587 Y0.4945
X0.9451 Y0.458
X0.9326 Y0.421
X0.9211 Y0.3838
X0.9107 Y0.3462
X0.9013 Y0.3084
X0.8963 Y0.2852
X0.8956 Y0.2811
X0.8951 Y0.277
X0.895 Y0.2729
Y-0.1861
X0.8969 Y-0.225
X0.8996 Y-0.2639
X0.9048 Y-0.3025
X0.912 Y-0.3409
X0.9209 Y-0.3788
X0.9312 Y-0.4164
X0.9429 Y-0.4536
X0.9558 Y-0.4904
X0.9698 Y-0.5268
X0.9849 Y-0.5627
X1.0011 Y-0.5982
X1.0183 Y-0.6332
X1.0365 Y-0.6677
X1.0558 Y-0.7016
X1.0759 Y-0.735
X1.0971 Y-0.7677
X1.1191 Y-0.7999
X1.142 Y-0.8314
X1.1659 Y-0.8623
X1.1905 Y-0.8925
X1.2161 Y-0.922
X1.2424 Y-0.9507
X1.2695 Y-0.9787
X1.2974 Y-1.0059
X1.3179 Y-1.0248
X1.3212 Y-1.0276
X1.3246 Y-1.0302
X1.3283 Y-1.0325
X1.7344 Y-1.267
X1.7691 Y-1.2847
X1.8041 Y-1.3021
X1.8401 Y-1.317
X1.8768 Y-1.3301
X1.9141 Y-1.3414
X1.9518 Y-1.3513
X1.9899 Y-1.3598
X2.0282 Y-1.367
X2.0667 Y-1.373
X2.1054 Y-1.3778
X2.1442 Y-1.3814
X2.1831 Y-1.3839
X2.2221 Y-1.3853
X2.2611 Y-1.3856
X2.3001 Y-1.3848
X2.339 Y-1.3829
X2.3779 Y-1.3799
X2.4167 Y-1.3758
X2.4553 Y-1.3706
X2.4938 Y-1.3644
X2.5321 Y-1.3571
X2.5702 Y-1.3487
X2.608 Y-1.3392
X2.6456 Y-1.3287
X2.6677 Y-1.3218
X2.6718 Y-1.3204
X2.6757 Y-1.3186
X2.6795 Y-1.3166
X3.11 Y-1.0681
X3.1428 Y-1.0469
X3.175 Y-1.025
X3.2057 Y-1.001
X3.2352 Y-0.9754
X3.2635 Y-0.9486
X3.2907 Y-0.9207
X3.317 Y-0.8919
X3.3423 Y-0.8622
X3.3667 Y-0.8318
X3.3902 Y-0.8007
X3.4128 Y-0.7689
X3.4344 Y-0.7365
X3.4552 Y-0.7035
X3.475 Y-0.6699
X3.4938 Y-0.6358
X3.5118 Y-0.6011
X3.5288 Y-0.566
X3.5448 Y-0.5305
X3.5598 Y-0.4945
X3.5739 Y-0.4582
X3.5869 Y-0.4214
X3.599 Y-0.3843
X3.6026 Y-0.372
X3.6039 Y-0.3666
X3.6047 Y-0.3611
X3.605 Y-0.3555
Y0.3367
X3.6031 Y0.3756
X3.6012 Y0.395
X3.5961 Y0.4337
X3.5881 Y0.4718
X3.578 Y0.5095
X3.5661 Y0.5466
X3.5526 Y0.5832
X3.5379 Y0.6193
X3.5219 Y0.6549
X3.5048 Y0.6899
X3.4867 Y0.7244
X3.4676 Y0.7584
X3.4475 Y0.7918
X3.4265 Y0.8247
X3.4046 Y0.8569
X3.3818 Y0.8886
X3.3581 Y0.9196
X3.357 Y0.921
X3.3521 Y0.9263
X3.3467 Y0.9309
X3.3407 Y0.9349
X2.9454 Y1.1631
X2.9424 Y1.1645
X2.9393 Y1.1654
X2.9361 Y1.1659
G2 X2.9198 Y1.1742 I0.0024 J0.0249
G3 X2.9062 Y1.1857 I-0.0466 J-0.0413
G1 X2.5429 Y1.3955
X2.5083 Y1.4133
X2.4903 Y1.4208
X2.4563 Y1.4332
X2.4187 Y1.4435
X2.3805 Y1.4513
X2.3419 Y1.457
X2.3032 Y1.4609
X2.2642 Y1.4634
X2.2253 Y1.4644
X2.1863 Y1.4642
X2.1473 Y1.4629
X2.1084 Y1.4603
X2.0747 Y1.4572
X2.0666 Y1.4558
X2.0588 Y1.4534
X2.0513 Y1.4498
X2.0379 Y1.4422
X1.7715 Y1.2884
G3 X1.7604 Y1.2616 I0.0132 J-0.0212 F50
X1.7883 Y1.2424 I0.0244 J0.0056 F70
G1 X2.5333 Y1.3495
G3 X2.5541 Y1.3687 I-0.0036 J0.0247
X2.5429 Y1.3955 I-0.0244 J0.0056 F50
G1 X2.4543 Y1.4466 F70
X2.4455 Y1.4517
X2.426 Y1.4619
X2.4189 Y1.4655
X2.3888 Y1.4796
X2.3835 Y1.4818
X2.3569 Y1.4914
X2.348 Y1.494
X2.3214 Y1.5011
X2.3126 Y1.5035
X2.3037 Y1.5044
X2.2594 Y1.5083
X2.2506 Y1.5081
X2.2328 Y1.5074
X2.224 Y1.5069
X2.1974 Y1.5045
X2.1885 Y1.5037
X2.1797 Y1.5014
X2.1354 Y1.4895
X2.1316 Y1.4884
X2.1265 Y1.4862
X2.0999 Y1.4743
X2.0732 Y1.4619
X2.0645 Y1.4573
X2.0513 Y1.4498
G3 X2.04 Y1.4231 I0.0131 J-0.0213 F50
G1 X2.0409 Y1.4193 Z-0.1247
X2.0417 Y1.4156 Z-0.1238
X2.0425 Y1.412 Z-0.1223
X2.0432 Y1.4088 Z-0.1202
X2.0439 Y1.4059 Z-0.1177
X2.0444 Y1.4034 Z-0.1147
X2.0448 Y1.4014 Z-0.1113
X2.0452 Y1.3999 Z-0.1077
X2.0454 Y1.399 Z-0.1039
Y1.3987 Z-0.1
G0 Z0.2
X1.4904 Y1.1013
Z-0.075
G1 Z-0.1 F50
X1.4901 Z-0.1039
X1.4892 Z-0.1077
X1.4877 Z-0.1113
X1.4857 Z-0.1147
X1.4831 Y1.1014 Z-0.1177
X1.4801 Z-0.1202
X1.4768 Z-0.1223
X1.4732 Y1.1015 Z-0.1238
X1.4694 Z-0.1247
X1.4654 Y1.1016 Z-0.125
G3 X1.4354 Y1.0943 I-0.0008 J-0.0623
G1 X1.1519 Y0.9306 F70
X1.1248 Y0.9131
X1.1019 Y0.8956
X1.0753 Y0.8716
X1.0485 Y0.8432
X1.0238 Y0.8131
X1.0007 Y0.7816
X0.9791 Y0.7492
X0.9587 Y0.7159
X0.9395 Y0.682
X0.9215 Y0.6474
X0.9045 Y0.6124
X0.9014 Y0.6056
X0.899 Y0.5992
X0.8973 Y0.5925
X0.8964 Y0.5856
X0.8954 Y0.567
X0.895 Y0.5582
Y0.2729
G3 X0.9126 Y0.2499 I0.025 J0.0009 F50
X0.9433 Y0.2648 I0.0074 J0.0239 F70
G1 X1.1869 Y0.8996
G3 X1.1806 Y0.9269 I-0.0233 J0.009
X1.1519 Y0.9306 I-0.017 J-0.0183 F50
G1 X1.0987 Y0.8999 F70
X1.0898 Y0.8946
X1.0633 Y0.8776
X1.0246 Y0.8505
X1.0218 Y0.8484
X1.019 Y0.8457
X0.9796 Y0.8062
X0.9746 Y0.7997
X0.9606 Y0.7797
X0.9432 Y0.7531
X0.9392 Y0.7464
X0.9258 Y0.7176
X0.9223 Y0.7088
X0.9156 Y0.6911
X0.9126 Y0.6825
X0.903 Y0.6468
X0.9009 Y0.6379
X0.8993 Y0.6202
X0.897 Y0.5936
X0.8964 Y0.5856
G0 Z0.2
X0.9165 Y-0.1349
Z-0.075
G1 Z-0.1 F50
X0.9163 Y-0.1352 Z-0.1039
X0.9159 Y-0.136 Z-0.1077
X0.9151 Y-0.1372 Z-0.1113
X0.914 Y-0.139 Z-0.1147
X0.9127 Y-0.1412 Z-0.1177
X0.9112 Y-0.1438 Z-0.1202
X0.9095 Y-0.1466 Z-0.1223
X0.9077 Y-0.1497 Z-0.1238
X0.9057 Y-0.153 Z-0.1247
X0.9037 Y-0.1564 Z-0.125
G3 X0.895 Y-0.1861 I0.0536 J-0.0318
G1 Y-0.4961 F70
X0.8965 Y-0.5259
X0.9001 Y-0.5534
X0.9074 Y-0.5875
X0.9186 Y-0.6248
X0.9324 Y-0.6613
X0.9482 Y-0.6969
X0.9656 Y-0.7318
X0.9844 Y-0.766
X1.0044 Y-0.7995
X1.0254 Y-0.8323
X1.0443 Y-0.8598
X1.0485 Y-0.8653
X1.0534 Y-0.8703
X1.0589 Y-0.8746
X1.0633 Y-0.8776
X1.0903 Y-0.8948
X1.0987 Y-0.8999
X1.3283 Y-1.0325
G3 X1.357 Y-1.0287 I0.0117 J0.0221 F50
X1.3594 Y-0.9946 I-0.017 J0.0183 F70
G1 X0.9393 Y-0.4812
G3 X0.9126 Y-0.4731 I-0.0193 J-0.0158
X0.895 Y-0.4961 I0.0074 J-0.0239 F50
G1 Y-0.5582 F70
X0.8954 Y-0.567
X0.8964 Y-0.5847
X0.897 Y-0.5936
X0.9001 Y-0.629
X0.9009 Y-0.6379
X0.903 Y-0.6468
X0.9126 Y-0.6825
X0.9156 Y-0.6911
X0.9223 Y-0.7088
X0.9258 Y-0.7176
X0.9392 Y-0.7464
X0.9432 Y-0.7531
X0.9606 Y-0.7797
X0.9746 Y-0.7997
X0.9796 Y-0.8062
X1.019 Y-0.8457
X1.0218 Y-0.8484
X1.0246 Y-0.8505
X1.0589 Y-0.8746
G3 X1.0879 Y-0.8734 I0.0136 J0.021 F50
G1 X1.091 Y-0.871 Z-0.1247
X1.094 Y-0.8686 Z-0.1238
X1.0968 Y-0.8664 Z-0.1223
X1.0995 Y-0.8644 Z-0.1202
X1.1018 Y-0.8625 Z-0.1177
X1.1038 Y-0.861 Z-0.1147
X1.1055 Y-0.8597 Z-0.1113
X1.1066 Y-0.8588 Z-0.1077
X1.1074 Y-0.8582 Z-0.1039
X1.1076 Y-0.858 Z-0.1
G0 Z0.2
X1.7009 Y-1.2228
Z-0.075
G1 Z-0.1 F50
X1.701 Y-1.223 Z-0.1039
X1.7015 Y-1.2238 Z-0.1077
X1.7022 Y-1.2251 Z-0.1113
X1.7032 Y-1.2269 Z-0.1147
X1.7044 Y-1.2292 Z-0.1177
X1.7059 Y-1.2318 Z-0.1202
X1.7075 Y-1.2347 Z-0.1223
X1.7093 Y-1.2378 Z-0.1238
X1.7112 Y-1.2412 Z-0.1247
X1.7131 Y-1.2446 Z-0.125
G3 X1.7344 Y-1.267 I0.0544 J0.0305
G1 X2.0025 Y-1.4217 F70
X2.0303 Y-1.436
X2.0557 Y-1.4465
X2.0886 Y-1.4571
X2.1265 Y-1.4661
X2.165 Y-1.4724
X2.2038 Y-1.4765
X2.2427 Y-1.4788
X2.2817 Y-1.4796
X2.3207 Y-1.479
X2.3596 Y-1.4772
X2.3902 Y-1.4748
X2.3971 Y-1.4739
X2.4038 Y-1.4721
X2.4103 Y-1.4695
X2.4189 Y-1.4655
X2.4278 Y-1.4609
X2.4455 Y-1.4517
X2.4543 Y-1.4466
X2.6795 Y-1.3166
G3 X2.6907 Y-1.2899 I-0.0132 J0.0212 F50
X2.6623 Y-1.2707 I-0.0244 J-0.0056 F70
G1 X2.0117 Y-1.3758
G3 X1.9913 Y-1.3949 I0.004 J-0.0247
X2.0025 Y-1.4217 I0.0244 J-0.0056 F50
G1 X2.0414 Y-1.4442 F70
X2.0645 Y-1.4573
X2.0733 Y-1.4619
X2.0999 Y-1.4743
X2.1265 Y-1.4862
X2.1316 Y-1.4884
X2.1354 Y-1.4895
X2.1797 Y-1.5014
X2.1885 Y-1.5037
X2.1974 Y-1.5045
X2.224 Y-1.5069
X2.2328 Y-1.5074
X2.2506 Y-1.5081
X2.2594 Y-1.5083
X2.3037 Y-1.5044
X2.3126 Y-1.5035
X2.3303 Y-1.4987
X2.348 Y-1.494
X2.3569 Y-1.4914
X2.3835 Y-1.4818
X2.3888 Y-1.4796
X2.4103 Y-1.4695
G3 X2.4237 Y-1.4438 I-0.0113 J0.0223 F50
G1 X2.4232 Y-1.44 Z-0.1247
X2.4227 Y-1.4362 Z-0.1238
X2.4222 Y-1.4326 Z-0.1223
X2.4217 Y-1.4293 Z-0.1202
X2.4213 Y-1.4263 Z-0.1177
X2.421 Y-1.4238 Z-0.1147
X2.4207 Y-1.4218 Z-0.1113
X2.4205 Y-1.4203 Z-0.1077
X2.4204 Y-1.4194 Z-0.1039
X2.4203 Y-1.4191 Z-0.1
G0 Z0.2
X3.055 Y-1.0751
Z-0.075
G1 Z-0.1 F50
X3.0553 Z-0.1039
X3.0562 Z-0.1077
X3.0577 Z-0.1113
X3.0597 Z-0.1147
X3.0623 Z-0.1177
X3.0653 Y-1.0752 Z-0.1202
X3.0686 Z-0.1223
X3.0722 Y-1.0753 Z-0.1238
X3.0761 Z-0.1247
X3.08 Y-1.0754 Z-0.125
G3 X3.11 Y-1.0681 I0.0008 J0.0623
G1 X3.3758 Y-0.9146 F70
X3.4002 Y-0.8989
X3.4224 Y-0.8819
X3.4485 Y-0.8583
X3.4752 Y-0.8299
X3.5 Y-0.7998
X3.523 Y-0.7683
X3.5446 Y-0.7359
X3.5649 Y-0.7026
X3.5841 Y-0.6686
X3.5935 Y-0.6505
X3.5966 Y-0.6435
X3.5988 Y-0.6361
X3.6 Y-0.6285
G3 X3.5844 Y-0.6041 I-0.025 J0.0013 F50
G1 X3.5808 Y-0.6026 Z-0.1247
X3.5773 Y-0.6012 Z-0.1238
X3.5739 Y-0.5998 Z-0.1223
X3.5708 Y-0.5985 Z-0.1202
X3.568 Y-0.5974 Z-0.1177
X3.5657 Y-0.5965 Z-0.1147
X3.5638 Y-0.5957 Z-0.1113
X3.5624 Y-0.5951 Z-0.1077
X3.5615 Y-0.5948 Z-0.1039
X3.5613 Y-0.5947 Z-0.1
G0 Z0.2
X3.3208 Y-0.9216
Z-0.075
G1 Z-0.1 F50
X3.3211 Z-0.1039
X3.322 Z-0.1077
X3.3235 Z-0.1113
X3.3256 Z-0.1147
X3.3281 Y-0.9217 Z-0.1177
X3.3311 Z-0.1202
X3.3344 Y-0.9218 Z-0.1223
X3.3381 Z-0.1238
X3.3419 Y-0.9219 Z-0.1247
X3.3458 Z-0.125
G3 X3.3758 Y-0.9146 I0.0008 J0.0623
G1 X3.4113 Y-0.8941 F70
X3.4201 Y-0.889
X3.4248 Y-0.886
X3.4754 Y-0.8505
X3.4788 Y-0.8479
X3.5116 Y-0.8151
X3.5204 Y-0.8062
X3.5265 Y-0.7981
X3.5456 Y-0.7708
X3.5514 Y-0.7619
X3.5569 Y-0.7531
X3.5619 Y-0.744
X3.5796 Y-0.706
X3.5817 Y-0.6999
X3.5847 Y-0.6911
X3.5875 Y-0.6822
X3.5973 Y-0.6453
X3.5991 Y-0.6379
X3.6007 Y-0.6202
X3.603 Y-0.5936
X3.6036 Y-0.5847
X3.6046 Y-0.567
X3.605 Y-0.5582
Y-0.3555
Y-0.3246 F50
Y0.3058 F70
Y0.3367 F50
Y0.5582 F70
X3.6046 Y0.567
X3.6036 Y0.5847
X3.603 Y0.5936
X3.5999 Y0.629
X3.5991 Y0.6379
X3.5973 Y0.6453
X3.5875 Y0.6822
X3.5847 Y0.6911
X3.5817 Y0.6999
X3.5796 Y0.706
X3.5618 Y0.7442
X3.5569 Y0.7531
X3.5514 Y0.7619
X3.5456 Y0.7708
X3.5265 Y0.7981
X3.5204 Y0.8062
X3.4822 Y0.8445
X3.4788 Y0.8479
X3.4754 Y0.8505
X3.4248 Y0.886
X3.4201 Y0.889
X3.3794 Y0.9126
X3.3407 Y0.9349
X3.338 Y0.9361 F50
X3.3352 Y0.937
X3.3321 Y0.9374 Z-0.1248
X3.329 Y0.9378 Z-0.1242
X3.3259 Y0.9373 Z-0.1232
X3.323 Y0.9367 Z-0.1217
X3.3203 Y0.9363 Z-0.1199
X3.3178 Y0.9348 Z-0.1173
X3.3157 Y0.9335 Z-0.1142
X3.314 Y0.9325 Z-0.1108
X3.3128 Y0.9318 Z-0.1071
X3.3122 Y0.9313 Z-0.1036
X3.312 Y0.9311 Z-0.1
G0 Z0.2
X2.1967 Y-2.1516
Z0.1001
G3 X2.3033 Y-2.3638 Z0.0871 I0.0533 J-0.1061 F25
X2.1967 Y-2.1516 Z0.0741 I-0.0533 J0.1061
X2.3033 Y-2.3638 Z0.061 I0.0533 J-0.1061
X2.1967 Y-2.1516 Z0.048 I-0.0533 J0.1061
X2.3033 Y-2.3638 Z0.035 I0.0533 J-0.1061
X2.1967 Y-2.1516 Z0.022 I-0.0533 J0.1061
X2.3033 Y-2.3638 Z0.0089 I0.0533 J-0.1061
X2.1967 Y-2.1516 Z-0.0041 I-0.0533 J0.1061
X2.3033 Y-2.3638 Z-0.0171 I0.0533 J-0.1061
X2.1967 Y-2.1516 Z-0.0302 I-0.0533 J0.1061
X2.3033 Y-2.3638 Z-0.0432 I0.0533 J-0.1061
X2.1967 Y-2.1516 Z-0.0562 I-0.0533 J0.1061
X2.3033 Y-2.3638 Z-0.0692 I0.0533 J-0.1061
X2.1967 Y-2.1516 Z-0.0823 I-0.0533 J0.1061
X2.3033 Y-2.3638 Z-0.0953 I0.0533 J-0.1061
X2.3687 Y-2.2577 Z-0.0999 I-0.0533 J0.1061
X2.1312 I-0.1188 J0
X2.3687 I0.1188 J0
G1 X2.37 Y-2.2285 F70
X2.3765 Y-2.1986
X2.3773 Y-2.1926
X2.3775 Y-2.1866
X2.3772 Y-2.1805
X2.3764 Y-2.1739
X2.3749 Y-2.1669
X2.3728 Y-2.1597
X2.3699 Y-2.1522
X2.3662 Y-2.1445
X2.3617 Y-2.1368
X2.3564 Y-2.1291
X2.3502 Y-2.1216
X2.3431 Y-2.1142
X2.3351 Y-2.1072
X2.3263 Y-2.1007
X2.3167 Y-2.0946
X2.3128 Y-2.0926
X2.3027 Y-2.0885
X2.2919 Y-2.0863
X2.281 Y-2.0862
X2.2594 Y-2.088
X2.2506 Y-2.0879
X2.2328 Y-2.0873
X2.228 Y-2.0869
X2.2193 Y-2.0868
X2.2082 Y-2.0874
X2.1968 Y-2.089
X2.1852 Y-2.0916
X2.1736 Y-2.0952
X2.162 Y-2.0999
X2.1505 Y-2.1055
X2.1394 Y-2.1122
X2.1077 Y-2.135
X2.0718 Y-2.1502
X2.033 Y-2.1542
X1.9942 Y-2.1506
X1.9561 Y-2.142
X1.9191 Y-2.1299
X1.8829 Y-2.1154
X1.8474 Y-2.0993
X1.8123 Y-2.0822
X1.7777 Y-2.0643
X1.7433 Y-2.0459
X1.7092 Y-2.0271
X1.6751 Y-2.0081
X1.6411 Y-1.9889
X1.6072 Y-1.9697
X1.5734 Y-1.9503
X1.5058 Y-1.9115
X1.4044 Y-1.8532
X1.1342 Y-1.6972
X0.4589 Y-1.3073
X0.3238 Y-1.2294
X0.2943 Y-1.2039
X0.2727 Y-1.1715
X0.2573 Y-1.1356
X0.2464 Y-1.0982
X0.2389 Y-1.0599
X0.2337 Y-1.0213
X0.2301 Y-0.9825
X0.2276 Y-0.9436
X0.2259 Y-0.9046
X0.2247 Y-0.8656
X0.2239 Y-0.8267
X0.2234 Y-0.7877
X0.223 Y-0.7487
X0.2228 Y-0.7097
X0.2226 Y-0.6707
X0.2224 Y-0.5927
X0.2223 Y-0.4757
Y-0.1248
Y0.577
Y1.0449
X0.2265 Y1.0837
X0.2421 Y1.1194
X0.2644 Y1.1514
X0.2908 Y1.1801
X0.3197 Y1.2062
X0.3503 Y1.2304
X0.382 Y1.2532
X0.4143 Y1.2749
X0.4471 Y1.296
X0.4803 Y1.3166
X0.5136 Y1.3368
X0.5471 Y1.3568
X0.5806 Y1.3766
X0.6143 Y1.3964
X0.6479 Y1.416
X0.6816 Y1.4356
X0.7491 Y1.4748
X0.8841 Y1.5528
X1.4581 Y1.8843
X2.1335 Y2.2742
X2.1677 Y2.2928
X2.2062 Y2.2991
X2.2452 Y2.2971
X2.2834 Y2.2896
X2.3207 Y2.2782
X2.3571 Y2.2642
X2.3928 Y2.2484
X2.4279 Y2.2315
X2.4626 Y2.2138
X2.497 Y2.1954
X2.5313 Y2.1768
X2.5653 Y2.1578
X2.5993 Y2.1387
X2.6332 Y2.1195
X2.6671 Y2.1001
X2.7009 Y2.0808
X2.7685 Y2.0419
X2.9037 Y1.964
X3.2076 Y1.7886
X4.1868 Y1.2232
X4.2136 Y1.1948
X4.233 Y1.161
X4.2467 Y1.1245
X4.2563 Y1.0867
X4.263 Y1.0483
X4.2677 Y1.0096
X4.2709 Y0.9708
X4.273 Y0.9318
X4.2745 Y0.8929
X4.2756 Y0.8539
X4.2763 Y0.8149
X4.2767 Y0.7759
X4.2771 Y0.7369
X4.2773 Y0.6979
X4.2774 Y0.6589
X4.2776 Y0.581
X4.2777 Y0.464
Y0.386
Y-1.0566
X4.2694 Y-1.0947
X4.2515 Y-1.1294
X4.2278 Y-1.1603
X4.2005 Y-1.1882
X4.171 Y-1.2137
X4.14 Y-1.2374
X4.1082 Y-1.2598
X4.0757 Y-1.2814
X4.0427 Y-1.3023
X4.0095 Y-1.3227
X3.9762 Y-1.3429
